%
(Exported by FreeCAD)
(Post Processor: linuxcnc_post)
(Output Time:2023-04-02 13:35:35.819215)
(begin preamble)
G17 G54 G40 G49 G80 G90
G21
(begin operation: G54)
(machine units: mm/min)
G54 
G0 Z5.000 
(finish operation: G54)
(begin operation: FSH032.0200.10H021)
(machine units: mm/min)
(FSH032.0200.10H021) 
M5
(M6 T1) 
G43 H1 
M3 S1000 
(finish operation: FSH032.0200.10H021)
(begin operation: Helix)
(machine units: mm/min)
(Helix) 
(helix cut operation) 
G0 Z5.000 
G0 Z5.000 
G0 X19.000 Y-21.000 Z5.000 
G0 X19.000 Y-21.000 Z0.000 
G0 X19.050 Y-21.000 
G1 Z0.000 F1000.000 
G2 X18.950 Y-21.000 Z-0.900 I-0.050 J0.000 F1000.000 
G2 X19.050 Y-21.000 Z-1.800 I0.050 J0.000 F1000.000 
G2 X18.950 Y-21.000 Z-2.700 I-0.050 J0.000 F1000.000 
G2 X19.050 Y-21.000 Z-3.600 I0.050 J0.000 F1000.000 
G2 X18.950 Y-21.000 Z-4.500 I-0.050 J0.000 F1000.000 
G2 X19.050 Y-21.000 Z-5.400 I0.050 J0.000 F1000.000 
G2 X18.950 Y-21.000 Z-6.300 I-0.050 J0.000 F1000.000 
G2 X19.050 Y-21.000 Z-7.200 I0.050 J0.000 F1000.000 
G2 X18.950 Y-21.000 Z-8.100 I-0.050 J0.000 F1000.000 
G2 X19.050 Y-21.000 Z-9.000 I0.050 J0.000 F1000.000 
G2 X18.950 Y-21.000 Z-9.000 I-0.050 J0.000 F1000.000 
G2 X19.050 Y-21.000 Z-9.000 I0.050 J0.000 F1000.000 
G0 X19.000 Y-21.000 Z-9.000 
G0 Z0.000 
G0 Z5.000 
G0 X19.000 Y-63.000 Z5.000 
G0 X19.000 Y-63.000 Z0.000 
G0 X19.050 Y-63.000 
G1 Z0.000 F1000.000 
G2 X18.950 Y-63.000 Z-0.900 I-0.050 J0.000 F1000.000 
G2 X19.050 Y-63.000 Z-1.800 I0.050 J0.000 F1000.000 
G2 X18.950 Y-63.000 Z-2.700 I-0.050 J0.000 F1000.000 
G2 X19.050 Y-63.000 Z-3.600 I0.050 J0.000 F1000.000 
G2 X18.950 Y-63.000 Z-4.500 I-0.050 J0.000 F1000.000 
G2 X19.050 Y-63.000 Z-5.400 I0.050 J0.000 F1000.000 
G2 X18.950 Y-63.000 Z-6.300 I-0.050 J0.000 F1000.000 
G2 X19.050 Y-63.000 Z-7.200 I0.050 J0.000 F1000.000 
G2 X18.950 Y-63.000 Z-8.100 I-0.050 J0.000 F1000.000 
G2 X19.050 Y-63.000 Z-9.000 I0.050 J0.000 F1000.000 
G2 X18.950 Y-63.000 Z-9.000 I-0.050 J0.000 F1000.000 
G2 X19.050 Y-63.000 Z-9.000 I0.050 J0.000 F1000.000 
G0 X19.000 Y-63.000 Z-9.000 
G0 Z0.000 
G0 Z5.000 
G0 X19.000 Y-105.000 Z5.000 
G0 X19.000 Y-105.000 Z0.000 
G0 X19.050 Y-105.000 
G1 Z0.000 F1000.000 
G2 X18.950 Y-105.000 Z-0.900 I-0.050 J0.000 F1000.000 
G2 X19.050 Y-105.000 Z-1.800 I0.050 J0.000 F1000.000 
G2 X18.950 Y-105.000 Z-2.700 I-0.050 J0.000 F1000.000 
G2 X19.050 Y-105.000 Z-3.600 I0.050 J0.000 F1000.000 
G2 X18.950 Y-105.000 Z-4.500 I-0.050 J0.000 F1000.000 
G2 X19.050 Y-105.000 Z-5.400 I0.050 J0.000 F1000.000 
G2 X18.950 Y-105.000 Z-6.300 I-0.050 J0.000 F1000.000 
G2 X19.050 Y-105.000 Z-7.200 I0.050 J0.000 F1000.000 
G2 X18.950 Y-105.000 Z-8.100 I-0.050 J0.000 F1000.000 
G2 X19.050 Y-105.000 Z-9.000 I0.050 J0.000 F1000.000 
G2 X18.950 Y-105.000 Z-9.000 I-0.050 J0.000 F1000.000 
G2 X19.050 Y-105.000 Z-9.000 I0.050 J0.000 F1000.000 
G0 X19.000 Y-105.000 Z-9.000 
G0 Z0.000 
G0 Z5.000 
G0 X19.000 Y-147.000 Z5.000 
G0 X19.000 Y-147.000 Z0.000 
G0 X19.050 Y-147.000 
G1 Z0.000 F1000.000 
G2 X18.950 Y-147.000 Z-0.900 I-0.050 J0.000 F1000.000 
G2 X19.050 Y-147.000 Z-1.800 I0.050 J0.000 F1000.000 
G2 X18.950 Y-147.000 Z-2.700 I-0.050 J0.000 F1000.000 
G2 X19.050 Y-147.000 Z-3.600 I0.050 J0.000 F1000.000 
G2 X18.950 Y-147.000 Z-4.500 I-0.050 J0.000 F1000.000 
G2 X19.050 Y-147.000 Z-5.400 I0.050 J0.000 F1000.000 
G2 X18.950 Y-147.000 Z-6.300 I-0.050 J0.000 F1000.000 
G2 X19.050 Y-147.000 Z-7.200 I0.050 J0.000 F1000.000 
G2 X18.950 Y-147.000 Z-8.100 I-0.050 J0.000 F1000.000 
G2 X19.050 Y-147.000 Z-9.000 I0.050 J0.000 F1000.000 
G2 X18.950 Y-147.000 Z-9.000 I-0.050 J0.000 F1000.000 
G2 X19.050 Y-147.000 Z-9.000 I0.050 J0.000 F1000.000 
G0 X19.000 Y-147.000 Z-9.000 
G0 Z0.000 
G0 Z5.000 
G0 X19.000 Y-189.000 Z5.000 
G0 X19.000 Y-189.000 Z0.000 
G0 X19.050 Y-189.000 
G1 Z0.000 F1000.000 
G2 X18.950 Y-189.000 Z-0.900 I-0.050 J0.000 F1000.000 
G2 X19.050 Y-189.000 Z-1.800 I0.050 J0.000 F1000.000 
G2 X18.950 Y-189.000 Z-2.700 I-0.050 J0.000 F1000.000 
G2 X19.050 Y-189.000 Z-3.600 I0.050 J0.000 F1000.000 
G2 X18.950 Y-189.000 Z-4.500 I-0.050 J0.000 F1000.000 
G2 X19.050 Y-189.000 Z-5.400 I0.050 J0.000 F1000.000 
G2 X18.950 Y-189.000 Z-6.300 I-0.050 J0.000 F1000.000 
G2 X19.050 Y-189.000 Z-7.200 I0.050 J0.000 F1000.000 
G2 X18.950 Y-189.000 Z-8.100 I-0.050 J0.000 F1000.000 
G2 X19.050 Y-189.000 Z-9.000 I0.050 J0.000 F1000.000 
G2 X18.950 Y-189.000 Z-9.000 I-0.050 J0.000 F1000.000 
G2 X19.050 Y-189.000 Z-9.000 I0.050 J0.000 F1000.000 
G0 X19.000 Y-189.000 Z-9.000 
G0 Z0.000 
G0 Z5.000 
G0 X85.000 Y-155.000 Z5.000 
G0 X85.000 Y-155.000 Z0.000 
G0 X86.000 Y-155.000 
G1 Z0.000 F1000.000 
G2 X84.000 Y-155.000 Z-0.900 I-1.000 J0.000 F1000.000 
G2 X86.000 Y-155.000 Z-1.800 I1.000 J0.000 F1000.000 
G2 X84.000 Y-155.000 Z-2.700 I-1.000 J0.000 F1000.000 
G2 X86.000 Y-155.000 Z-3.600 I1.000 J0.000 F1000.000 
G2 X84.000 Y-155.000 Z-4.500 I-1.000 J0.000 F1000.000 
G2 X86.000 Y-155.000 Z-5.400 I1.000 J0.000 F1000.000 
G2 X84.000 Y-155.000 Z-6.300 I-1.000 J0.000 F1000.000 
G2 X86.000 Y-155.000 Z-7.200 I1.000 J0.000 F1000.000 
G2 X84.000 Y-155.000 Z-8.100 I-1.000 J0.000 F1000.000 
G2 X86.000 Y-155.000 Z-9.000 I1.000 J0.000 F1000.000 
G2 X84.000 Y-155.000 Z-9.000 I-1.000 J0.000 F1000.000 
G2 X86.000 Y-155.000 Z-9.000 I1.000 J0.000 F1000.000 
G0 X85.000 Y-155.000 Z-9.000 
G0 Z0.000 
G0 X86.525 Y-155.000 
G1 Z0.000 F1000.000 
G2 X83.475 Y-155.000 Z-0.900 I-1.525 J0.000 F1000.000 
G2 X86.525 Y-155.000 Z-1.800 I1.525 J0.000 F1000.000 
G2 X83.475 Y-155.000 Z-2.700 I-1.525 J0.000 F1000.000 
G2 X86.525 Y-155.000 Z-3.600 I1.525 J0.000 F1000.000 
G2 X83.475 Y-155.000 Z-4.500 I-1.525 J0.000 F1000.000 
G2 X86.525 Y-155.000 Z-5.400 I1.525 J0.000 F1000.000 
G2 X83.475 Y-155.000 Z-6.300 I-1.525 J0.000 F1000.000 
G2 X86.525 Y-155.000 Z-7.200 I1.525 J0.000 F1000.000 
G2 X83.475 Y-155.000 Z-8.100 I-1.525 J0.000 F1000.000 
G2 X86.525 Y-155.000 Z-9.000 I1.525 J0.000 F1000.000 
G2 X83.475 Y-155.000 Z-9.000 I-1.525 J0.000 F1000.000 
G2 X86.525 Y-155.000 Z-9.000 I1.525 J0.000 F1000.000 
G0 X85.000 Y-155.000 Z-9.000 
G0 Z0.000 
G0 X87.050 Y-155.000 
G1 Z0.000 F1000.000 
G2 X82.950 Y-155.000 Z-0.900 I-2.050 J0.000 F1000.000 
G2 X87.050 Y-155.000 Z-1.800 I2.050 J0.000 F1000.000 
G2 X82.950 Y-155.000 Z-2.700 I-2.050 J0.000 F1000.000 
G2 X87.050 Y-155.000 Z-3.600 I2.050 J0.000 F1000.000 
G2 X82.950 Y-155.000 Z-4.500 I-2.050 J0.000 F1000.000 
G2 X87.050 Y-155.000 Z-5.400 I2.050 J0.000 F1000.000 
G2 X82.950 Y-155.000 Z-6.300 I-2.050 J0.000 F1000.000 
G2 X87.050 Y-155.000 Z-7.200 I2.050 J0.000 F1000.000 
G2 X82.950 Y-155.000 Z-8.100 I-2.050 J0.000 F1000.000 
G2 X87.050 Y-155.000 Z-9.000 I2.050 J0.000 F1000.000 
G2 X82.950 Y-155.000 Z-9.000 I-2.050 J0.000 F1000.000 
G2 X87.050 Y-155.000 Z-9.000 I2.050 J0.000 F1000.000 
G0 X85.000 Y-155.000 Z-9.000 
G0 Z0.000 
G0 Z5.000 
G0 X85.000 Y-55.000 Z5.000 
G0 X85.000 Y-55.000 Z0.000 
G0 X86.000 Y-55.000 
G1 Z0.000 F1000.000 
G2 X84.000 Y-55.000 Z-0.900 I-1.000 J0.000 F1000.000 
G2 X86.000 Y-55.000 Z-1.800 I1.000 J0.000 F1000.000 
G2 X84.000 Y-55.000 Z-2.700 I-1.000 J0.000 F1000.000 
G2 X86.000 Y-55.000 Z-3.600 I1.000 J0.000 F1000.000 
G2 X84.000 Y-55.000 Z-4.500 I-1.000 J0.000 F1000.000 
G2 X86.000 Y-55.000 Z-5.400 I1.000 J0.000 F1000.000 
G2 X84.000 Y-55.000 Z-6.300 I-1.000 J0.000 F1000.000 
G2 X86.000 Y-55.000 Z-7.200 I1.000 J0.000 F1000.000 
G2 X84.000 Y-55.000 Z-8.100 I-1.000 J0.000 F1000.000 
G2 X86.000 Y-55.000 Z-9.000 I1.000 J0.000 F1000.000 
G2 X84.000 Y-55.000 Z-9.000 I-1.000 J0.000 F1000.000 
G2 X86.000 Y-55.000 Z-9.000 I1.000 J0.000 F1000.000 
G0 X85.000 Y-55.000 Z-9.000 
G0 Z0.000 
G0 X86.525 Y-55.000 
G1 Z0.000 F1000.000 
G2 X83.475 Y-55.000 Z-0.900 I-1.525 J0.000 F1000.000 
G2 X86.525 Y-55.000 Z-1.800 I1.525 J0.000 F1000.000 
G2 X83.475 Y-55.000 Z-2.700 I-1.525 J0.000 F1000.000 
G2 X86.525 Y-55.000 Z-3.600 I1.525 J0.000 F1000.000 
G2 X83.475 Y-55.000 Z-4.500 I-1.525 J0.000 F1000.000 
G2 X86.525 Y-55.000 Z-5.400 I1.525 J0.000 F1000.000 
G2 X83.475 Y-55.000 Z-6.300 I-1.525 J0.000 F1000.000 
G2 X86.525 Y-55.000 Z-7.200 I1.525 J0.000 F1000.000 
G2 X83.475 Y-55.000 Z-8.100 I-1.525 J0.000 F1000.000 
G2 X86.525 Y-55.000 Z-9.000 I1.525 J0.000 F1000.000 
G2 X83.475 Y-55.000 Z-9.000 I-1.525 J0.000 F1000.000 
G2 X86.525 Y-55.000 Z-9.000 I1.525 J0.000 F1000.000 
G0 X85.000 Y-55.000 Z-9.000 
G0 Z0.000 
G0 X87.050 Y-55.000 
G1 Z0.000 F1000.000 
G2 X82.950 Y-55.000 Z-0.900 I-2.050 J0.000 F1000.000 
G2 X87.050 Y-55.000 Z-1.800 I2.050 J0.000 F1000.000 
G2 X82.950 Y-55.000 Z-2.700 I-2.050 J0.000 F1000.000 
G2 X87.050 Y-55.000 Z-3.600 I2.050 J0.000 F1000.000 
G2 X82.950 Y-55.000 Z-4.500 I-2.050 J0.000 F1000.000 
G2 X87.050 Y-55.000 Z-5.400 I2.050 J0.000 F1000.000 
G2 X82.950 Y-55.000 Z-6.300 I-2.050 J0.000 F1000.000 
G2 X87.050 Y-55.000 Z-7.200 I2.050 J0.000 F1000.000 
G2 X82.950 Y-55.000 Z-8.100 I-2.050 J0.000 F1000.000 
G2 X87.050 Y-55.000 Z-9.000 I2.050 J0.000 F1000.000 
G2 X82.950 Y-55.000 Z-9.000 I-2.050 J0.000 F1000.000 
G2 X87.050 Y-55.000 Z-9.000 I2.050 J0.000 F1000.000 
G0 X85.000 Y-55.000 Z-9.000 
G0 Z0.000 
G0 Z5.000 
G0 X185.000 Y-55.000 Z5.000 
G0 X185.000 Y-55.000 Z0.000 
G0 X186.000 Y-55.000 
G1 Z0.000 F1000.000 
G2 X184.000 Y-55.000 Z-0.900 I-1.000 J0.000 F1000.000 
G2 X186.000 Y-55.000 Z-1.800 I1.000 J0.000 F1000.000 
G2 X184.000 Y-55.000 Z-2.700 I-1.000 J0.000 F1000.000 
G2 X186.000 Y-55.000 Z-3.600 I1.000 J0.000 F1000.000 
G2 X184.000 Y-55.000 Z-4.500 I-1.000 J0.000 F1000.000 
G2 X186.000 Y-55.000 Z-5.400 I1.000 J0.000 F1000.000 
G2 X184.000 Y-55.000 Z-6.300 I-1.000 J0.000 F1000.000 
G2 X186.000 Y-55.000 Z-7.200 I1.000 J0.000 F1000.000 
G2 X184.000 Y-55.000 Z-8.100 I-1.000 J0.000 F1000.000 
G2 X186.000 Y-55.000 Z-9.000 I1.000 J0.000 F1000.000 
G2 X184.000 Y-55.000 Z-9.000 I-1.000 J0.000 F1000.000 
G2 X186.000 Y-55.000 Z-9.000 I1.000 J0.000 F1000.000 
G0 X185.000 Y-55.000 Z-9.000 
G0 Z0.000 
G0 X186.525 Y-55.000 
G1 Z0.000 F1000.000 
G2 X183.475 Y-55.000 Z-0.900 I-1.525 J0.000 F1000.000 
G2 X186.525 Y-55.000 Z-1.800 I1.525 J0.000 F1000.000 
G2 X183.475 Y-55.000 Z-2.700 I-1.525 J0.000 F1000.000 
G2 X186.525 Y-55.000 Z-3.600 I1.525 J0.000 F1000.000 
G2 X183.475 Y-55.000 Z-4.500 I-1.525 J0.000 F1000.000 
G2 X186.525 Y-55.000 Z-5.400 I1.525 J0.000 F1000.000 
G2 X183.475 Y-55.000 Z-6.300 I-1.525 J0.000 F1000.000 
G2 X186.525 Y-55.000 Z-7.200 I1.525 J0.000 F1000.000 
G2 X183.475 Y-55.000 Z-8.100 I-1.525 J0.000 F1000.000 
G2 X186.525 Y-55.000 Z-9.000 I1.525 J0.000 F1000.000 
G2 X183.475 Y-55.000 Z-9.000 I-1.525 J0.000 F1000.000 
G2 X186.525 Y-55.000 Z-9.000 I1.525 J0.000 F1000.000 
G0 X185.000 Y-55.000 Z-9.000 
G0 Z0.000 
G0 X187.050 Y-55.000 
G1 Z0.000 F1000.000 
G2 X182.950 Y-55.000 Z-0.900 I-2.050 J0.000 F1000.000 
G2 X187.050 Y-55.000 Z-1.800 I2.050 J0.000 F1000.000 
G2 X182.950 Y-55.000 Z-2.700 I-2.050 J0.000 F1000.000 
G2 X187.050 Y-55.000 Z-3.600 I2.050 J0.000 F1000.000 
G2 X182.950 Y-55.000 Z-4.500 I-2.050 J0.000 F1000.000 
G2 X187.050 Y-55.000 Z-5.400 I2.050 J0.000 F1000.000 
G2 X182.950 Y-55.000 Z-6.300 I-2.050 J0.000 F1000.000 
G2 X187.050 Y-55.000 Z-7.200 I2.050 J0.000 F1000.000 
G2 X182.950 Y-55.000 Z-8.100 I-2.050 J0.000 F1000.000 
G2 X187.050 Y-55.000 Z-9.000 I2.050 J0.000 F1000.000 
G2 X182.950 Y-55.000 Z-9.000 I-2.050 J0.000 F1000.000 
G2 X187.050 Y-55.000 Z-9.000 I2.050 J0.000 F1000.000 
G0 X185.000 Y-55.000 Z-9.000 
G0 Z0.000 
G0 Z5.000 
G0 X251.000 Y-63.000 Z5.000 
G0 X251.000 Y-63.000 Z0.000 
G0 X251.050 Y-63.000 
G1 Z0.000 F1000.000 
G2 X250.950 Y-63.000 Z-0.900 I-0.050 J0.000 F1000.000 
G2 X251.050 Y-63.000 Z-1.800 I0.050 J0.000 F1000.000 
G2 X250.950 Y-63.000 Z-2.700 I-0.050 J0.000 F1000.000 
G2 X251.050 Y-63.000 Z-3.600 I0.050 J0.000 F1000.000 
G2 X250.950 Y-63.000 Z-4.500 I-0.050 J0.000 F1000.000 
G2 X251.050 Y-63.000 Z-5.400 I0.050 J0.000 F1000.000 
G2 X250.950 Y-63.000 Z-6.300 I-0.050 J0.000 F1000.000 
G2 X251.050 Y-63.000 Z-7.200 I0.050 J0.000 F1000.000 
G2 X250.950 Y-63.000 Z-8.100 I-0.050 J0.000 F1000.000 
G2 X251.050 Y-63.000 Z-9.000 I0.050 J0.000 F1000.000 
G2 X250.950 Y-63.000 Z-9.000 I-0.050 J0.000 F1000.000 
G2 X251.050 Y-63.000 Z-9.000 I0.050 J0.000 F1000.000 
G0 X251.000 Y-63.000 Z-9.000 
G0 Z0.000 
G0 Z5.000 
G0 X251.000 Y-105.000 Z5.000 
G0 X251.000 Y-105.000 Z0.000 
G0 X251.050 Y-105.000 
G1 Z0.000 F1000.000 
G2 X250.950 Y-105.000 Z-0.900 I-0.050 J0.000 F1000.000 
G2 X251.050 Y-105.000 Z-1.800 I0.050 J0.000 F1000.000 
G2 X250.950 Y-105.000 Z-2.700 I-0.050 J0.000 F1000.000 
G2 X251.050 Y-105.000 Z-3.600 I0.050 J0.000 F1000.000 
G2 X250.950 Y-105.000 Z-4.500 I-0.050 J0.000 F1000.000 
G2 X251.050 Y-105.000 Z-5.400 I0.050 J0.000 F1000.000 
G2 X250.950 Y-105.000 Z-6.300 I-0.050 J0.000 F1000.000 
G2 X251.050 Y-105.000 Z-7.200 I0.050 J0.000 F1000.000 
G2 X250.950 Y-105.000 Z-8.100 I-0.050 J0.000 F1000.000 
G2 X251.050 Y-105.000 Z-9.000 I0.050 J0.000 F1000.000 
G2 X250.950 Y-105.000 Z-9.000 I-0.050 J0.000 F1000.000 
G2 X251.050 Y-105.000 Z-9.000 I0.050 J0.000 F1000.000 
G0 X251.000 Y-105.000 Z-9.000 
G0 Z0.000 
G0 Z5.000 
G0 X251.000 Y-147.000 Z5.000 
G0 X251.000 Y-147.000 Z0.000 
G0 X251.050 Y-147.000 
G1 Z0.000 F1000.000 
G2 X250.950 Y-147.000 Z-0.900 I-0.050 J0.000 F1000.000 
G2 X251.050 Y-147.000 Z-1.800 I0.050 J0.000 F1000.000 
G2 X250.950 Y-147.000 Z-2.700 I-0.050 J0.000 F1000.000 
G2 X251.050 Y-147.000 Z-3.600 I0.050 J0.000 F1000.000 
G2 X250.950 Y-147.000 Z-4.500 I-0.050 J0.000 F1000.000 
G2 X251.050 Y-147.000 Z-5.400 I0.050 J0.000 F1000.000 
G2 X250.950 Y-147.000 Z-6.300 I-0.050 J0.000 F1000.000 
G2 X251.050 Y-147.000 Z-7.200 I0.050 J0.000 F1000.000 
G2 X250.950 Y-147.000 Z-8.100 I-0.050 J0.000 F1000.000 
G2 X251.050 Y-147.000 Z-9.000 I0.050 J0.000 F1000.000 
G2 X250.950 Y-147.000 Z-9.000 I-0.050 J0.000 F1000.000 
G2 X251.050 Y-147.000 Z-9.000 I0.050 J0.000 F1000.000 
G0 X251.000 Y-147.000 Z-9.000 
G0 Z0.000 
G0 Z5.000 
G0 X251.000 Y-189.000 Z5.000 
G0 X251.000 Y-189.000 Z0.000 
G0 X251.050 Y-189.000 
G1 Z0.000 F1000.000 
G2 X250.950 Y-189.000 Z-0.900 I-0.050 J0.000 F1000.000 
G2 X251.050 Y-189.000 Z-1.800 I0.050 J0.000 F1000.000 
G2 X250.950 Y-189.000 Z-2.700 I-0.050 J0.000 F1000.000 
G2 X251.050 Y-189.000 Z-3.600 I0.050 J0.000 F1000.000 
G2 X250.950 Y-189.000 Z-4.500 I-0.050 J0.000 F1000.000 
G2 X251.050 Y-189.000 Z-5.400 I0.050 J0.000 F1000.000 
G2 X250.950 Y-189.000 Z-6.300 I-0.050 J0.000 F1000.000 
G2 X251.050 Y-189.000 Z-7.200 I0.050 J0.000 F1000.000 
G2 X250.950 Y-189.000 Z-8.100 I-0.050 J0.000 F1000.000 
G2 X251.050 Y-189.000 Z-9.000 I0.050 J0.000 F1000.000 
G2 X250.950 Y-189.000 Z-9.000 I-0.050 J0.000 F1000.000 
G2 X251.050 Y-189.000 Z-9.000 I0.050 J0.000 F1000.000 
G0 X251.000 Y-189.000 Z-9.000 
G0 Z0.000 
G0 Z5.000 
G0 X185.000 Y-155.000 Z5.000 
G0 X185.000 Y-155.000 Z0.000 
G0 X186.000 Y-155.000 
G1 Z0.000 F1000.000 
G2 X184.000 Y-155.000 Z-0.900 I-1.000 J0.000 F1000.000 
G2 X186.000 Y-155.000 Z-1.800 I1.000 J0.000 F1000.000 
G2 X184.000 Y-155.000 Z-2.700 I-1.000 J0.000 F1000.000 
G2 X186.000 Y-155.000 Z-3.600 I1.000 J0.000 F1000.000 
G2 X184.000 Y-155.000 Z-4.500 I-1.000 J0.000 F1000.000 
G2 X186.000 Y-155.000 Z-5.400 I1.000 J0.000 F1000.000 
G2 X184.000 Y-155.000 Z-6.300 I-1.000 J0.000 F1000.000 
G2 X186.000 Y-155.000 Z-7.200 I1.000 J0.000 F1000.000 
G2 X184.000 Y-155.000 Z-8.100 I-1.000 J0.000 F1000.000 
G2 X186.000 Y-155.000 Z-9.000 I1.000 J0.000 F1000.000 
G2 X184.000 Y-155.000 Z-9.000 I-1.000 J0.000 F1000.000 
G2 X186.000 Y-155.000 Z-9.000 I1.000 J0.000 F1000.000 
G0 X185.000 Y-155.000 Z-9.000 
G0 Z0.000 
G0 X186.525 Y-155.000 
G1 Z0.000 F1000.000 
G2 X183.475 Y-155.000 Z-0.900 I-1.525 J0.000 F1000.000 
G2 X186.525 Y-155.000 Z-1.800 I1.525 J0.000 F1000.000 
G2 X183.475 Y-155.000 Z-2.700 I-1.525 J0.000 F1000.000 
G2 X186.525 Y-155.000 Z-3.600 I1.525 J0.000 F1000.000 
G2 X183.475 Y-155.000 Z-4.500 I-1.525 J0.000 F1000.000 
G2 X186.525 Y-155.000 Z-5.400 I1.525 J0.000 F1000.000 
G2 X183.475 Y-155.000 Z-6.300 I-1.525 J0.000 F1000.000 
G2 X186.525 Y-155.000 Z-7.200 I1.525 J0.000 F1000.000 
G2 X183.475 Y-155.000 Z-8.100 I-1.525 J0.000 F1000.000 
G2 X186.525 Y-155.000 Z-9.000 I1.525 J0.000 F1000.000 
G2 X183.475 Y-155.000 Z-9.000 I-1.525 J0.000 F1000.000 
G2 X186.525 Y-155.000 Z-9.000 I1.525 J0.000 F1000.000 
G0 X185.000 Y-155.000 Z-9.000 
G0 Z0.000 
G0 X187.050 Y-155.000 
G1 Z0.000 F1000.000 
G2 X182.950 Y-155.000 Z-0.900 I-2.050 J0.000 F1000.000 
G2 X187.050 Y-155.000 Z-1.800 I2.050 J0.000 F1000.000 
G2 X182.950 Y-155.000 Z-2.700 I-2.050 J0.000 F1000.000 
G2 X187.050 Y-155.000 Z-3.600 I2.050 J0.000 F1000.000 
G2 X182.950 Y-155.000 Z-4.500 I-2.050 J0.000 F1000.000 
G2 X187.050 Y-155.000 Z-5.400 I2.050 J0.000 F1000.000 
G2 X182.950 Y-155.000 Z-6.300 I-2.050 J0.000 F1000.000 
G2 X187.050 Y-155.000 Z-7.200 I2.050 J0.000 F1000.000 
G2 X182.950 Y-155.000 Z-8.100 I-2.050 J0.000 F1000.000 
G2 X187.050 Y-155.000 Z-9.000 I2.050 J0.000 F1000.000 
G2 X182.950 Y-155.000 Z-9.000 I-2.050 J0.000 F1000.000 
G2 X187.050 Y-155.000 Z-9.000 I2.050 J0.000 F1000.000 
G0 X185.000 Y-155.000 Z-9.000 
G0 Z0.000 
G0 Z5.000 
G0 X251.000 Y-21.000 Z5.000 
G0 X251.000 Y-21.000 Z0.000 
G0 X251.050 Y-21.000 
G1 Z0.000 F1000.000 
G2 X250.950 Y-21.000 Z-0.900 I-0.050 J0.000 F1000.000 
G2 X251.050 Y-21.000 Z-1.800 I0.050 J0.000 F1000.000 
G2 X250.950 Y-21.000 Z-2.700 I-0.050 J0.000 F1000.000 
G2 X251.050 Y-21.000 Z-3.600 I0.050 J0.000 F1000.000 
G2 X250.950 Y-21.000 Z-4.500 I-0.050 J0.000 F1000.000 
G2 X251.050 Y-21.000 Z-5.400 I0.050 J0.000 F1000.000 
G2 X250.950 Y-21.000 Z-6.300 I-0.050 J0.000 F1000.000 
G2 X251.050 Y-21.000 Z-7.200 I0.050 J0.000 F1000.000 
G2 X250.950 Y-21.000 Z-8.100 I-0.050 J0.000 F1000.000 
G2 X251.050 Y-21.000 Z-9.000 I0.050 J0.000 F1000.000 
G2 X250.950 Y-21.000 Z-9.000 I-0.050 J0.000 F1000.000 
G2 X251.050 Y-21.000 Z-9.000 I0.050 J0.000 F1000.000 
G0 X251.000 Y-21.000 Z-9.000 
G0 Z0.000 
G0 Z5.000 
(finish operation: Helix)
(begin operation: Helix001)
(machine units: mm/min)
(Helix001) 
(helix cut operation) 
G0 Z5.000 
G0 Z5.000 
G0 X85.000 Y-55.000 Z5.000 
G0 X85.000 Y-55.000 Z0.000 
G0 X86.000 Y-55.000 
G1 Z0.000 F1000.000 
G2 X84.000 Y-55.000 Z-0.833 I-1.000 J0.000 F1000.000 
G2 X86.000 Y-55.000 Z-1.667 I1.000 J0.000 F1000.000 
G2 X84.000 Y-55.000 Z-2.500 I-1.000 J0.000 F1000.000 
G2 X86.000 Y-55.000 Z-3.333 I1.000 J0.000 F1000.000 
G2 X84.000 Y-55.000 Z-4.167 I-1.000 J0.000 F1000.000 
G2 X86.000 Y-55.000 Z-5.000 I1.000 J0.000 F1000.000 
G2 X84.000 Y-55.000 Z-5.000 I-1.000 J0.000 F1000.000 
G2 X86.000 Y-55.000 Z-5.000 I1.000 J0.000 F1000.000 
G0 X85.000 Y-55.000 Z-5.000 
G0 Z0.000 
G0 X87.000 Y-55.000 
G1 Z0.000 F1000.000 
G2 X83.000 Y-55.000 Z-0.833 I-2.000 J0.000 F1000.000 
G2 X87.000 Y-55.000 Z-1.667 I2.000 J0.000 F1000.000 
G2 X83.000 Y-55.000 Z-2.500 I-2.000 J0.000 F1000.000 
G2 X87.000 Y-55.000 Z-3.333 I2.000 J0.000 F1000.000 
G2 X83.000 Y-55.000 Z-4.167 I-2.000 J0.000 F1000.000 
G2 X87.000 Y-55.000 Z-5.000 I2.000 J0.000 F1000.000 
G2 X83.000 Y-55.000 Z-5.000 I-2.000 J0.000 F1000.000 
G2 X87.000 Y-55.000 Z-5.000 I2.000 J0.000 F1000.000 
G0 X85.000 Y-55.000 Z-5.000 
G0 Z0.000 
G0 X88.000 Y-55.000 
G1 Z0.000 F1000.000 
G2 X82.000 Y-55.000 Z-0.833 I-3.000 J0.000 F1000.000 
G2 X88.000 Y-55.000 Z-1.667 I3.000 J0.000 F1000.000 
G2 X82.000 Y-55.000 Z-2.500 I-3.000 J0.000 F1000.000 
G2 X88.000 Y-55.000 Z-3.333 I3.000 J0.000 F1000.000 
G2 X82.000 Y-55.000 Z-4.167 I-3.000 J0.000 F1000.000 
G2 X88.000 Y-55.000 Z-5.000 I3.000 J0.000 F1000.000 
G2 X82.000 Y-55.000 Z-5.000 I-3.000 J0.000 F1000.000 
G2 X88.000 Y-55.000 Z-5.000 I3.000 J0.000 F1000.000 
G0 X85.000 Y-55.000 Z-5.000 
G0 Z0.000 
G0 X89.000 Y-55.000 
G1 Z0.000 F1000.000 
G2 X81.000 Y-55.000 Z-0.833 I-4.000 J0.000 F1000.000 
G2 X89.000 Y-55.000 Z-1.667 I4.000 J0.000 F1000.000 
G2 X81.000 Y-55.000 Z-2.500 I-4.000 J0.000 F1000.000 
G2 X89.000 Y-55.000 Z-3.333 I4.000 J0.000 F1000.000 
G2 X81.000 Y-55.000 Z-4.167 I-4.000 J0.000 F1000.000 
G2 X89.000 Y-55.000 Z-5.000 I4.000 J0.000 F1000.000 
G2 X81.000 Y-55.000 Z-5.000 I-4.000 J0.000 F1000.000 
G2 X89.000 Y-55.000 Z-5.000 I4.000 J0.000 F1000.000 
G0 X85.000 Y-55.000 Z-5.000 
G0 Z0.000 
G0 X90.000 Y-55.000 
G1 Z0.000 F1000.000 
G2 X80.000 Y-55.000 Z-0.833 I-5.000 J0.000 F1000.000 
G2 X90.000 Y-55.000 Z-1.667 I5.000 J0.000 F1000.000 
G2 X80.000 Y-55.000 Z-2.500 I-5.000 J0.000 F1000.000 
G2 X90.000 Y-55.000 Z-3.333 I5.000 J0.000 F1000.000 
G2 X80.000 Y-55.000 Z-4.167 I-5.000 J0.000 F1000.000 
G2 X90.000 Y-55.000 Z-5.000 I5.000 J0.000 F1000.000 
G2 X80.000 Y-55.000 Z-5.000 I-5.000 J0.000 F1000.000 
G2 X90.000 Y-55.000 Z-5.000 I5.000 J0.000 F1000.000 
G0 X85.000 Y-55.000 Z-5.000 
G0 Z0.000 
G0 Z5.000 
G0 X85.000 Y-155.000 Z5.000 
G0 X85.000 Y-155.000 Z0.000 
G0 X86.000 Y-155.000 
G1 Z0.000 F1000.000 
G2 X84.000 Y-155.000 Z-0.833 I-1.000 J0.000 F1000.000 
G2 X86.000 Y-155.000 Z-1.667 I1.000 J0.000 F1000.000 
G2 X84.000 Y-155.000 Z-2.500 I-1.000 J0.000 F1000.000 
G2 X86.000 Y-155.000 Z-3.333 I1.000 J0.000 F1000.000 
G2 X84.000 Y-155.000 Z-4.167 I-1.000 J0.000 F1000.000 
G2 X86.000 Y-155.000 Z-5.000 I1.000 J0.000 F1000.000 
G2 X84.000 Y-155.000 Z-5.000 I-1.000 J0.000 F1000.000 
G2 X86.000 Y-155.000 Z-5.000 I1.000 J0.000 F1000.000 
G0 X85.000 Y-155.000 Z-5.000 
G0 Z0.000 
G0 X87.000 Y-155.000 
G1 Z0.000 F1000.000 
G2 X83.000 Y-155.000 Z-0.833 I-2.000 J0.000 F1000.000 
G2 X87.000 Y-155.000 Z-1.667 I2.000 J0.000 F1000.000 
G2 X83.000 Y-155.000 Z-2.500 I-2.000 J0.000 F1000.000 
G2 X87.000 Y-155.000 Z-3.333 I2.000 J0.000 F1000.000 
G2 X83.000 Y-155.000 Z-4.167 I-2.000 J0.000 F1000.000 
G2 X87.000 Y-155.000 Z-5.000 I2.000 J0.000 F1000.000 
G2 X83.000 Y-155.000 Z-5.000 I-2.000 J0.000 F1000.000 
G2 X87.000 Y-155.000 Z-5.000 I2.000 J0.000 F1000.000 
G0 X85.000 Y-155.000 Z-5.000 
G0 Z0.000 
G0 X88.000 Y-155.000 
G1 Z0.000 F1000.000 
G2 X82.000 Y-155.000 Z-0.833 I-3.000 J0.000 F1000.000 
G2 X88.000 Y-155.000 Z-1.667 I3.000 J0.000 F1000.000 
G2 X82.000 Y-155.000 Z-2.500 I-3.000 J0.000 F1000.000 
G2 X88.000 Y-155.000 Z-3.333 I3.000 J0.000 F1000.000 
G2 X82.000 Y-155.000 Z-4.167 I-3.000 J0.000 F1000.000 
G2 X88.000 Y-155.000 Z-5.000 I3.000 J0.000 F1000.000 
G2 X82.000 Y-155.000 Z-5.000 I-3.000 J0.000 F1000.000 
G2 X88.000 Y-155.000 Z-5.000 I3.000 J0.000 F1000.000 
G0 X85.000 Y-155.000 Z-5.000 
G0 Z0.000 
G0 X89.000 Y-155.000 
G1 Z0.000 F1000.000 
G2 X81.000 Y-155.000 Z-0.833 I-4.000 J0.000 F1000.000 
G2 X89.000 Y-155.000 Z-1.667 I4.000 J0.000 F1000.000 
G2 X81.000 Y-155.000 Z-2.500 I-4.000 J0.000 F1000.000 
G2 X89.000 Y-155.000 Z-3.333 I4.000 J0.000 F1000.000 
G2 X81.000 Y-155.000 Z-4.167 I-4.000 J0.000 F1000.000 
G2 X89.000 Y-155.000 Z-5.000 I4.000 J0.000 F1000.000 
G2 X81.000 Y-155.000 Z-5.000 I-4.000 J0.000 F1000.000 
G2 X89.000 Y-155.000 Z-5.000 I4.000 J0.000 F1000.000 
G0 X85.000 Y-155.000 Z-5.000 
G0 Z0.000 
G0 X90.000 Y-155.000 
G1 Z0.000 F1000.000 
G2 X80.000 Y-155.000 Z-0.833 I-5.000 J0.000 F1000.000 
G2 X90.000 Y-155.000 Z-1.667 I5.000 J0.000 F1000.000 
G2 X80.000 Y-155.000 Z-2.500 I-5.000 J0.000 F1000.000 
G2 X90.000 Y-155.000 Z-3.333 I5.000 J0.000 F1000.000 
G2 X80.000 Y-155.000 Z-4.167 I-5.000 J0.000 F1000.000 
G2 X90.000 Y-155.000 Z-5.000 I5.000 J0.000 F1000.000 
G2 X80.000 Y-155.000 Z-5.000 I-5.000 J0.000 F1000.000 
G2 X90.000 Y-155.000 Z-5.000 I5.000 J0.000 F1000.000 
G0 X85.000 Y-155.000 Z-5.000 
G0 Z0.000 
G0 Z5.000 
G0 X185.000 Y-155.000 Z5.000 
G0 X185.000 Y-155.000 Z0.000 
G0 X186.000 Y-155.000 
G1 Z0.000 F1000.000 
G2 X184.000 Y-155.000 Z-0.833 I-1.000 J0.000 F1000.000 
G2 X186.000 Y-155.000 Z-1.667 I1.000 J0.000 F1000.000 
G2 X184.000 Y-155.000 Z-2.500 I-1.000 J0.000 F1000.000 
G2 X186.000 Y-155.000 Z-3.333 I1.000 J0.000 F1000.000 
G2 X184.000 Y-155.000 Z-4.167 I-1.000 J0.000 F1000.000 
G2 X186.000 Y-155.000 Z-5.000 I1.000 J0.000 F1000.000 
G2 X184.000 Y-155.000 Z-5.000 I-1.000 J0.000 F1000.000 
G2 X186.000 Y-155.000 Z-5.000 I1.000 J0.000 F1000.000 
G0 X185.000 Y-155.000 Z-5.000 
G0 Z0.000 
G0 X187.000 Y-155.000 
G1 Z0.000 F1000.000 
G2 X183.000 Y-155.000 Z-0.833 I-2.000 J0.000 F1000.000 
G2 X187.000 Y-155.000 Z-1.667 I2.000 J0.000 F1000.000 
G2 X183.000 Y-155.000 Z-2.500 I-2.000 J0.000 F1000.000 
G2 X187.000 Y-155.000 Z-3.333 I2.000 J0.000 F1000.000 
G2 X183.000 Y-155.000 Z-4.167 I-2.000 J0.000 F1000.000 
G2 X187.000 Y-155.000 Z-5.000 I2.000 J0.000 F1000.000 
G2 X183.000 Y-155.000 Z-5.000 I-2.000 J0.000 F1000.000 
G2 X187.000 Y-155.000 Z-5.000 I2.000 J0.000 F1000.000 
G0 X185.000 Y-155.000 Z-5.000 
G0 Z0.000 
G0 X188.000 Y-155.000 
G1 Z0.000 F1000.000 
G2 X182.000 Y-155.000 Z-0.833 I-3.000 J0.000 F1000.000 
G2 X188.000 Y-155.000 Z-1.667 I3.000 J0.000 F1000.000 
G2 X182.000 Y-155.000 Z-2.500 I-3.000 J0.000 F1000.000 
G2 X188.000 Y-155.000 Z-3.333 I3.000 J0.000 F1000.000 
G2 X182.000 Y-155.000 Z-4.167 I-3.000 J0.000 F1000.000 
G2 X188.000 Y-155.000 Z-5.000 I3.000 J0.000 F1000.000 
G2 X182.000 Y-155.000 Z-5.000 I-3.000 J0.000 F1000.000 
G2 X188.000 Y-155.000 Z-5.000 I3.000 J0.000 F1000.000 
G0 X185.000 Y-155.000 Z-5.000 
G0 Z0.000 
G0 X189.000 Y-155.000 
G1 Z0.000 F1000.000 
G2 X181.000 Y-155.000 Z-0.833 I-4.000 J0.000 F1000.000 
G2 X189.000 Y-155.000 Z-1.667 I4.000 J0.000 F1000.000 
G2 X181.000 Y-155.000 Z-2.500 I-4.000 J0.000 F1000.000 
G2 X189.000 Y-155.000 Z-3.333 I4.000 J0.000 F1000.000 
G2 X181.000 Y-155.000 Z-4.167 I-4.000 J0.000 F1000.000 
G2 X189.000 Y-155.000 Z-5.000 I4.000 J0.000 F1000.000 
G2 X181.000 Y-155.000 Z-5.000 I-4.000 J0.000 F1000.000 
G2 X189.000 Y-155.000 Z-5.000 I4.000 J0.000 F1000.000 
G0 X185.000 Y-155.000 Z-5.000 
G0 Z0.000 
G0 X190.000 Y-155.000 
G1 Z0.000 F1000.000 
G2 X180.000 Y-155.000 Z-0.833 I-5.000 J0.000 F1000.000 
G2 X190.000 Y-155.000 Z-1.667 I5.000 J0.000 F1000.000 
G2 X180.000 Y-155.000 Z-2.500 I-5.000 J0.000 F1000.000 
G2 X190.000 Y-155.000 Z-3.333 I5.000 J0.000 F1000.000 
G2 X180.000 Y-155.000 Z-4.167 I-5.000 J0.000 F1000.000 
G2 X190.000 Y-155.000 Z-5.000 I5.000 J0.000 F1000.000 
G2 X180.000 Y-155.000 Z-5.000 I-5.000 J0.000 F1000.000 
G2 X190.000 Y-155.000 Z-5.000 I5.000 J0.000 F1000.000 
G0 X185.000 Y-155.000 Z-5.000 
G0 Z0.000 
G0 Z5.000 
G0 X185.000 Y-55.000 Z5.000 
G0 X185.000 Y-55.000 Z0.000 
G0 X186.000 Y-55.000 
G1 Z0.000 F1000.000 
G2 X184.000 Y-55.000 Z-0.833 I-1.000 J0.000 F1000.000 
G2 X186.000 Y-55.000 Z-1.667 I1.000 J0.000 F1000.000 
G2 X184.000 Y-55.000 Z-2.500 I-1.000 J0.000 F1000.000 
G2 X186.000 Y-55.000 Z-3.333 I1.000 J0.000 F1000.000 
G2 X184.000 Y-55.000 Z-4.167 I-1.000 J0.000 F1000.000 
G2 X186.000 Y-55.000 Z-5.000 I1.000 J0.000 F1000.000 
G2 X184.000 Y-55.000 Z-5.000 I-1.000 J0.000 F1000.000 
G2 X186.000 Y-55.000 Z-5.000 I1.000 J0.000 F1000.000 
G0 X185.000 Y-55.000 Z-5.000 
G0 Z0.000 
G0 X187.000 Y-55.000 
G1 Z0.000 F1000.000 
G2 X183.000 Y-55.000 Z-0.833 I-2.000 J0.000 F1000.000 
G2 X187.000 Y-55.000 Z-1.667 I2.000 J0.000 F1000.000 
G2 X183.000 Y-55.000 Z-2.500 I-2.000 J0.000 F1000.000 
G2 X187.000 Y-55.000 Z-3.333 I2.000 J0.000 F1000.000 
G2 X183.000 Y-55.000 Z-4.167 I-2.000 J0.000 F1000.000 
G2 X187.000 Y-55.000 Z-5.000 I2.000 J0.000 F1000.000 
G2 X183.000 Y-55.000 Z-5.000 I-2.000 J0.000 F1000.000 
G2 X187.000 Y-55.000 Z-5.000 I2.000 J0.000 F1000.000 
G0 X185.000 Y-55.000 Z-5.000 
G0 Z0.000 
G0 X188.000 Y-55.000 
G1 Z0.000 F1000.000 
G2 X182.000 Y-55.000 Z-0.833 I-3.000 J0.000 F1000.000 
G2 X188.000 Y-55.000 Z-1.667 I3.000 J0.000 F1000.000 
G2 X182.000 Y-55.000 Z-2.500 I-3.000 J0.000 F1000.000 
G2 X188.000 Y-55.000 Z-3.333 I3.000 J0.000 F1000.000 
G2 X182.000 Y-55.000 Z-4.167 I-3.000 J0.000 F1000.000 
G2 X188.000 Y-55.000 Z-5.000 I3.000 J0.000 F1000.000 
G2 X182.000 Y-55.000 Z-5.000 I-3.000 J0.000 F1000.000 
G2 X188.000 Y-55.000 Z-5.000 I3.000 J0.000 F1000.000 
G0 X185.000 Y-55.000 Z-5.000 
G0 Z0.000 
G0 X189.000 Y-55.000 
G1 Z0.000 F1000.000 
G2 X181.000 Y-55.000 Z-0.833 I-4.000 J0.000 F1000.000 
G2 X189.000 Y-55.000 Z-1.667 I4.000 J0.000 F1000.000 
G2 X181.000 Y-55.000 Z-2.500 I-4.000 J0.000 F1000.000 
G2 X189.000 Y-55.000 Z-3.333 I4.000 J0.000 F1000.000 
G2 X181.000 Y-55.000 Z-4.167 I-4.000 J0.000 F1000.000 
G2 X189.000 Y-55.000 Z-5.000 I4.000 J0.000 F1000.000 
G2 X181.000 Y-55.000 Z-5.000 I-4.000 J0.000 F1000.000 
G2 X189.000 Y-55.000 Z-5.000 I4.000 J0.000 F1000.000 
G0 X185.000 Y-55.000 Z-5.000 
G0 Z0.000 
G0 X190.000 Y-55.000 
G1 Z0.000 F1000.000 
G2 X180.000 Y-55.000 Z-0.833 I-5.000 J0.000 F1000.000 
G2 X190.000 Y-55.000 Z-1.667 I5.000 J0.000 F1000.000 
G2 X180.000 Y-55.000 Z-2.500 I-5.000 J0.000 F1000.000 
G2 X190.000 Y-55.000 Z-3.333 I5.000 J0.000 F1000.000 
G2 X180.000 Y-55.000 Z-4.167 I-5.000 J0.000 F1000.000 
G2 X190.000 Y-55.000 Z-5.000 I5.000 J0.000 F1000.000 
G2 X180.000 Y-55.000 Z-5.000 I-5.000 J0.000 F1000.000 
G2 X190.000 Y-55.000 Z-5.000 I5.000 J0.000 F1000.000 
G0 X185.000 Y-55.000 Z-5.000 
G0 Z0.000 
G0 Z5.000 
(finish operation: Helix001)
(begin operation: DressupTag)
(machine units: mm/min)
G0 Z5.000 
G0 X255.707 Y-12.293 Z5.000 
G0 X255.707 Y-12.293 Z3.000 
G1 X255.707 Y-12.293 Z-2.000 F1000.000 
G2 X256.000 Y-13.000 Z-2.000 I-0.707 J-0.707 F1000.000 
G1 X256.000 Y-197.000 Z-2.000 F1000.000 
G2 X255.000 Y-198.000 Z-2.000 I-1.000 J0.000 F1000.000 
G1 X15.000 Y-198.000 Z-2.000 F1000.000 
G2 X14.000 Y-197.000 Z-2.000 I0.000 J1.000 F1000.000 
G1 X14.000 Y-13.000 Z-2.000 F1000.000 
G2 X15.000 Y-12.000 Z-2.000 I1.000 J-0.000 F1000.000 
G1 X255.000 Y-12.000 Z-2.000 F1000.000 
G2 X255.707 Y-12.293 Z-2.000 I-0.000 J-1.000 F1000.000 
G1 X255.707 Y-12.293 Z-4.000 F1000.000 
G2 X256.000 Y-13.000 Z-4.000 I-0.707 J-0.707 F1000.000 
G1 X256.000 Y-197.000 Z-4.000 F1000.000 
G2 X255.000 Y-198.000 Z-4.000 I-1.000 J0.000 F1000.000 
G1 X15.000 Y-198.000 Z-4.000 F1000.000 
G2 X14.000 Y-197.000 Z-4.000 I0.000 J1.000 F1000.000 
G1 X14.000 Y-13.000 Z-4.000 F1000.000 
G2 X15.000 Y-12.000 Z-4.000 I1.000 J-0.000 F1000.000 
G1 X255.000 Y-12.000 Z-4.000 F1000.000 
G2 X255.707 Y-12.293 Z-4.000 I-0.000 J-1.000 F1000.000 
G1 X255.707 Y-12.293 Z-6.000 F1000.000 
G2 X256.000 Y-13.000 Z-6.000 I-0.707 J-0.707 F1000.000 
G1 X256.000 Y-197.000 Z-6.000 F1000.000 
G2 X255.000 Y-198.000 Z-6.000 I-1.000 J0.000 F1000.000 
G1 X196.485 Y-198.000 Z-6.000 F1000.000 
G1 X195.000 Y-198.000 Z-4.500 F1000.000 
G1 X193.515 Y-198.000 Z-6.000 F1000.000 
G1 X76.485 Y-198.000 Z-6.000 F1000.000 
G1 X75.000 Y-198.000 Z-4.500 F1000.000 
G1 X73.515 Y-198.000 Z-6.000 F1000.000 
G1 X15.000 Y-198.000 Z-6.000 F1000.000 
G2 X14.000 Y-197.000 Z-6.000 I0.000 J1.000 F1000.000 
G1 X14.000 Y-13.000 Z-6.000 F1000.000 
G2 X15.000 Y-12.000 Z-6.000 I1.000 J-0.000 F1000.000 
G1 X73.515 Y-12.000 Z-6.000 F1000.000 
G1 X75.000 Y-12.000 Z-4.500 F1000.000 
G1 X76.485 Y-12.000 Z-6.000 F1000.000 
G1 X193.515 Y-12.000 Z-6.000 F1000.000 
G1 X195.000 Y-12.000 Z-4.500 F1000.000 
G1 X196.485 Y-12.000 Z-6.000 F1000.000 
G1 X255.000 Y-12.000 Z-6.000 F1000.000 
G2 X255.707 Y-12.293 Z-6.000 I-0.000 J-1.000 F1000.000 
G1 X255.707 Y-12.293 Z-8.000 F1000.000 
G2 X256.000 Y-13.000 Z-8.000 I-0.707 J-0.707 F1000.000 
G1 X256.000 Y-197.000 Z-8.000 F1000.000 
G2 X255.000 Y-198.000 Z-8.000 I-1.000 J0.000 F1000.000 
G1 X198.465 Y-198.000 Z-8.000 F1000.000 
G1 X195.000 Y-198.000 Z-4.500 F1000.000 
G1 X191.535 Y-198.000 Z-8.000 F1000.000 
G1 X78.465 Y-198.000 Z-8.000 F1000.000 
G1 X75.000 Y-198.000 Z-4.500 F1000.000 
G1 X71.535 Y-198.000 Z-8.000 F1000.000 
G1 X15.000 Y-198.000 Z-8.000 F1000.000 
G2 X14.000 Y-197.000 Z-8.000 I0.000 J1.000 F1000.000 
G1 X14.000 Y-13.000 Z-8.000 F1000.000 
G2 X15.000 Y-12.000 Z-8.000 I1.000 J-0.000 F1000.000 
G1 X71.535 Y-12.000 Z-8.000 F1000.000 
G1 X75.000 Y-12.000 Z-4.500 F1000.000 
G1 X78.465 Y-12.000 Z-8.000 F1000.000 
G1 X191.535 Y-12.000 Z-8.000 F1000.000 
G1 X195.000 Y-12.000 Z-4.500 F1000.000 
G1 X198.465 Y-12.000 Z-8.000 F1000.000 
G1 X255.000 Y-12.000 Z-8.000 F1000.000 
G2 X255.707 Y-12.293 Z-8.000 I-0.000 J-1.000 F1000.000 
G1 X255.707 Y-12.293 Z-9.000 F1000.000 
G2 X256.000 Y-13.000 Z-9.000 I-0.707 J-0.707 F1000.000 
G1 X256.000 Y-197.000 Z-9.000 F1000.000 
G2 X255.000 Y-198.000 Z-9.000 I-1.000 J0.000 F1000.000 
G1 X199.455 Y-198.000 Z-9.000 F1000.000 
G1 X195.000 Y-198.000 Z-4.500 F1000.000 
G1 X190.545 Y-198.000 Z-9.000 F1000.000 
G1 X79.455 Y-198.000 Z-9.000 F1000.000 
G1 X75.000 Y-198.000 Z-4.500 F1000.000 
G1 X70.545 Y-198.000 Z-9.000 F1000.000 
G1 X15.000 Y-198.000 Z-9.000 F1000.000 
G2 X14.000 Y-197.000 Z-9.000 I0.000 J1.000 F1000.000 
G1 X14.000 Y-13.000 Z-9.000 F1000.000 
G2 X15.000 Y-12.000 Z-9.000 I1.000 J-0.000 F1000.000 
G1 X70.545 Y-12.000 Z-9.000 F1000.000 
G1 X75.000 Y-12.000 Z-4.500 F1000.000 
G1 X79.455 Y-12.000 Z-9.000 F1000.000 
G1 X190.545 Y-12.000 Z-9.000 F1000.000 
G1 X195.000 Y-12.000 Z-4.500 F1000.000 
G1 X199.455 Y-12.000 Z-9.000 F1000.000 
G1 X255.000 Y-12.000 Z-9.000 F1000.000 
G2 X255.707 Y-12.293 Z-9.000 I-0.000 J-1.000 F1000.000 
G0 X255.707 Y-12.293 Z5.000 
(finish operation: DressupTag)
(begin postamble)
M05
G17 G54 G90 G80 G40
M2
