%
(Exported by FreeCAD)
(Post Processor: linuxcnc_post)
(Output Time:2023-04-02 17:12:24.900045)
(begin preamble)
G17 G54 G40 G49 G80 G90
G21
(begin operation: G54)
(machine units: mm/min)
G54 
G0 Z5.000 
(finish operation: G54)
(begin operation: FSH032.0200.10H021)
(machine units: mm/min)
(FSH032.0200.10H021) 
M5
(M6 T1)
G43 H1 
M3 S1000 
(finish operation: FSH032.0200.10H021)
(begin operation: Helix)
(machine units: mm/min)
(Helix) 
(helix cut operation) 
G0 Z5.000 
G0 Z5.000 
G0 X19.000 Y-25.000 Z5.000 
G0 X19.000 Y-25.000 Z0.000 
G0 X19.050 Y-25.000 
G1 Z0.000 F1000.000 
G2 X18.950 Y-25.000 Z-0.900 I-0.050 J0.000 F1000.000 
G2 X19.050 Y-25.000 Z-1.800 I0.050 J0.000 F1000.000 
G2 X18.950 Y-25.000 Z-2.700 I-0.050 J0.000 F1000.000 
G2 X19.050 Y-25.000 Z-3.600 I0.050 J0.000 F1000.000 
G2 X18.950 Y-25.000 Z-4.500 I-0.050 J0.000 F1000.000 
G2 X19.050 Y-25.000 Z-5.400 I0.050 J0.000 F1000.000 
G2 X18.950 Y-25.000 Z-6.300 I-0.050 J0.000 F1000.000 
G2 X19.050 Y-25.000 Z-7.200 I0.050 J0.000 F1000.000 
G2 X18.950 Y-25.000 Z-8.100 I-0.050 J0.000 F1000.000 
G2 X19.050 Y-25.000 Z-9.000 I0.050 J0.000 F1000.000 
G2 X18.950 Y-25.000 Z-9.000 I-0.050 J0.000 F1000.000 
G2 X19.050 Y-25.000 Z-9.000 I0.050 J0.000 F1000.000 
G0 X19.000 Y-25.000 Z-9.000 
G0 Z0.000 
G0 Z5.000 
G0 X35.000 Y-10.500 Z5.000 
G0 X35.000 Y-10.500 Z0.000 
G0 X35.050 Y-10.500 
G1 Z0.000 F1000.000 
G2 X34.950 Y-10.500 Z-0.900 I-0.050 J0.000 F1000.000 
G2 X35.050 Y-10.500 Z-1.800 I0.050 J0.000 F1000.000 
G2 X34.950 Y-10.500 Z-2.700 I-0.050 J0.000 F1000.000 
G2 X35.050 Y-10.500 Z-3.600 I0.050 J0.000 F1000.000 
G2 X34.950 Y-10.500 Z-4.500 I-0.050 J0.000 F1000.000 
G2 X35.050 Y-10.500 Z-5.400 I0.050 J0.000 F1000.000 
G2 X34.950 Y-10.500 Z-6.300 I-0.050 J0.000 F1000.000 
G2 X35.050 Y-10.500 Z-7.200 I0.050 J0.000 F1000.000 
G2 X34.950 Y-10.500 Z-8.100 I-0.050 J0.000 F1000.000 
G2 X35.050 Y-10.500 Z-9.000 I0.050 J0.000 F1000.000 
G2 X34.950 Y-10.500 Z-9.000 I-0.050 J0.000 F1000.000 
G2 X35.050 Y-10.500 Z-9.000 I0.050 J0.000 F1000.000 
G0 X35.000 Y-10.500 Z-9.000 
G0 Z0.000 
G0 Z5.000 
G0 X19.000 Y-55.000 Z5.000 
G0 X19.000 Y-55.000 Z0.000 
G0 X19.050 Y-55.000 
G1 Z0.000 F1000.000 
G2 X18.950 Y-55.000 Z-0.900 I-0.050 J0.000 F1000.000 
G2 X19.050 Y-55.000 Z-1.800 I0.050 J0.000 F1000.000 
G2 X18.950 Y-55.000 Z-2.700 I-0.050 J0.000 F1000.000 
G2 X19.050 Y-55.000 Z-3.600 I0.050 J0.000 F1000.000 
G2 X18.950 Y-55.000 Z-4.500 I-0.050 J0.000 F1000.000 
G2 X19.050 Y-55.000 Z-5.400 I0.050 J0.000 F1000.000 
G2 X18.950 Y-55.000 Z-6.300 I-0.050 J0.000 F1000.000 
G2 X19.050 Y-55.000 Z-7.200 I0.050 J0.000 F1000.000 
G2 X18.950 Y-55.000 Z-8.100 I-0.050 J0.000 F1000.000 
G2 X19.050 Y-55.000 Z-9.000 I0.050 J0.000 F1000.000 
G2 X18.950 Y-55.000 Z-9.000 I-0.050 J0.000 F1000.000 
G2 X19.050 Y-55.000 Z-9.000 I0.050 J0.000 F1000.000 
G0 X19.000 Y-55.000 Z-9.000 
G0 Z0.000 
G0 Z5.000 
G0 X19.000 Y-85.000 Z5.000 
G0 X19.000 Y-85.000 Z0.000 
G0 X19.050 Y-85.000 
G1 Z0.000 F1000.000 
G2 X18.950 Y-85.000 Z-0.900 I-0.050 J0.000 F1000.000 
G2 X19.050 Y-85.000 Z-1.800 I0.050 J0.000 F1000.000 
G2 X18.950 Y-85.000 Z-2.700 I-0.050 J0.000 F1000.000 
G2 X19.050 Y-85.000 Z-3.600 I0.050 J0.000 F1000.000 
G2 X18.950 Y-85.000 Z-4.500 I-0.050 J0.000 F1000.000 
G2 X19.050 Y-85.000 Z-5.400 I0.050 J0.000 F1000.000 
G2 X18.950 Y-85.000 Z-6.300 I-0.050 J0.000 F1000.000 
G2 X19.050 Y-85.000 Z-7.200 I0.050 J0.000 F1000.000 
G2 X18.950 Y-85.000 Z-8.100 I-0.050 J0.000 F1000.000 
G2 X19.050 Y-85.000 Z-9.000 I0.050 J0.000 F1000.000 
G2 X18.950 Y-85.000 Z-9.000 I-0.050 J0.000 F1000.000 
G2 X19.050 Y-85.000 Z-9.000 I0.050 J0.000 F1000.000 
G0 X19.000 Y-85.000 Z-9.000 
G0 Z0.000 
G0 Z5.000 
G0 X19.000 Y-115.000 Z5.000 
G0 X19.000 Y-115.000 Z0.000 
G0 X19.050 Y-115.000 
G1 Z0.000 F1000.000 
G2 X18.950 Y-115.000 Z-0.900 I-0.050 J0.000 F1000.000 
G2 X19.050 Y-115.000 Z-1.800 I0.050 J0.000 F1000.000 
G2 X18.950 Y-115.000 Z-2.700 I-0.050 J0.000 F1000.000 
G2 X19.050 Y-115.000 Z-3.600 I0.050 J0.000 F1000.000 
G2 X18.950 Y-115.000 Z-4.500 I-0.050 J0.000 F1000.000 
G2 X19.050 Y-115.000 Z-5.400 I0.050 J0.000 F1000.000 
G2 X18.950 Y-115.000 Z-6.300 I-0.050 J0.000 F1000.000 
G2 X19.050 Y-115.000 Z-7.200 I0.050 J0.000 F1000.000 
G2 X18.950 Y-115.000 Z-8.100 I-0.050 J0.000 F1000.000 
G2 X19.050 Y-115.000 Z-9.000 I0.050 J0.000 F1000.000 
G2 X18.950 Y-115.000 Z-9.000 I-0.050 J0.000 F1000.000 
G2 X19.050 Y-115.000 Z-9.000 I0.050 J0.000 F1000.000 
G0 X19.000 Y-115.000 Z-9.000 
G0 Z0.000 
G0 Z5.000 
G0 X19.000 Y-145.000 Z5.000 
G0 X19.000 Y-145.000 Z0.000 
G0 X19.050 Y-145.000 
G1 Z0.000 F1000.000 
G2 X18.950 Y-145.000 Z-0.900 I-0.050 J0.000 F1000.000 
G2 X19.050 Y-145.000 Z-1.800 I0.050 J0.000 F1000.000 
G2 X18.950 Y-145.000 Z-2.700 I-0.050 J0.000 F1000.000 
G2 X19.050 Y-145.000 Z-3.600 I0.050 J0.000 F1000.000 
G2 X18.950 Y-145.000 Z-4.500 I-0.050 J0.000 F1000.000 
G2 X19.050 Y-145.000 Z-5.400 I0.050 J0.000 F1000.000 
G2 X18.950 Y-145.000 Z-6.300 I-0.050 J0.000 F1000.000 
G2 X19.050 Y-145.000 Z-7.200 I0.050 J0.000 F1000.000 
G2 X18.950 Y-145.000 Z-8.100 I-0.050 J0.000 F1000.000 
G2 X19.050 Y-145.000 Z-9.000 I0.050 J0.000 F1000.000 
G2 X18.950 Y-145.000 Z-9.000 I-0.050 J0.000 F1000.000 
G2 X19.050 Y-145.000 Z-9.000 I0.050 J0.000 F1000.000 
G0 X19.000 Y-145.000 Z-9.000 
G0 Z0.000 
G0 Z5.000 
G0 X19.000 Y-175.000 Z5.000 
G0 X19.000 Y-175.000 Z0.000 
G0 X19.050 Y-175.000 
G1 Z0.000 F1000.000 
G2 X18.950 Y-175.000 Z-0.900 I-0.050 J0.000 F1000.000 
G2 X19.050 Y-175.000 Z-1.800 I0.050 J0.000 F1000.000 
G2 X18.950 Y-175.000 Z-2.700 I-0.050 J0.000 F1000.000 
G2 X19.050 Y-175.000 Z-3.600 I0.050 J0.000 F1000.000 
G2 X18.950 Y-175.000 Z-4.500 I-0.050 J0.000 F1000.000 
G2 X19.050 Y-175.000 Z-5.400 I0.050 J0.000 F1000.000 
G2 X18.950 Y-175.000 Z-6.300 I-0.050 J0.000 F1000.000 
G2 X19.050 Y-175.000 Z-7.200 I0.050 J0.000 F1000.000 
G2 X18.950 Y-175.000 Z-8.100 I-0.050 J0.000 F1000.000 
G2 X19.050 Y-175.000 Z-9.000 I0.050 J0.000 F1000.000 
G2 X18.950 Y-175.000 Z-9.000 I-0.050 J0.000 F1000.000 
G2 X19.050 Y-175.000 Z-9.000 I0.050 J0.000 F1000.000 
G0 X19.000 Y-175.000 Z-9.000 
G0 Z0.000 
G0 Z5.000 
G0 X35.000 Y-199.500 Z5.000 
G0 X35.000 Y-199.500 Z0.000 
G0 X35.050 Y-199.500 
G1 Z0.000 F1000.000 
G2 X34.950 Y-199.500 Z-0.900 I-0.050 J0.000 F1000.000 
G2 X35.050 Y-199.500 Z-1.800 I0.050 J0.000 F1000.000 
G2 X34.950 Y-199.500 Z-2.700 I-0.050 J0.000 F1000.000 
G2 X35.050 Y-199.500 Z-3.600 I0.050 J0.000 F1000.000 
G2 X34.950 Y-199.500 Z-4.500 I-0.050 J0.000 F1000.000 
G2 X35.050 Y-199.500 Z-5.400 I0.050 J0.000 F1000.000 
G2 X34.950 Y-199.500 Z-6.300 I-0.050 J0.000 F1000.000 
G2 X35.050 Y-199.500 Z-7.200 I0.050 J0.000 F1000.000 
G2 X34.950 Y-199.500 Z-8.100 I-0.050 J0.000 F1000.000 
G2 X35.050 Y-199.500 Z-9.000 I0.050 J0.000 F1000.000 
G2 X34.950 Y-199.500 Z-9.000 I-0.050 J0.000 F1000.000 
G2 X35.050 Y-199.500 Z-9.000 I0.050 J0.000 F1000.000 
G0 X35.000 Y-199.500 Z-9.000 
G0 Z0.000 
G0 Z5.000 
G0 X95.000 Y-145.000 Z5.000 
G0 X95.000 Y-145.000 Z0.000 
G0 X96.000 Y-145.000 
G1 Z0.000 F1000.000 
G2 X94.000 Y-145.000 Z-0.900 I-1.000 J0.000 F1000.000 
G2 X96.000 Y-145.000 Z-1.800 I1.000 J0.000 F1000.000 
G2 X94.000 Y-145.000 Z-2.700 I-1.000 J0.000 F1000.000 
G2 X96.000 Y-145.000 Z-3.600 I1.000 J0.000 F1000.000 
G2 X94.000 Y-145.000 Z-4.500 I-1.000 J0.000 F1000.000 
G2 X96.000 Y-145.000 Z-5.400 I1.000 J0.000 F1000.000 
G2 X94.000 Y-145.000 Z-6.300 I-1.000 J0.000 F1000.000 
G2 X96.000 Y-145.000 Z-7.200 I1.000 J0.000 F1000.000 
G2 X94.000 Y-145.000 Z-8.100 I-1.000 J0.000 F1000.000 
G2 X96.000 Y-145.000 Z-9.000 I1.000 J0.000 F1000.000 
G2 X94.000 Y-145.000 Z-9.000 I-1.000 J0.000 F1000.000 
G2 X96.000 Y-145.000 Z-9.000 I1.000 J0.000 F1000.000 
G0 X95.000 Y-145.000 Z-9.000 
G0 Z0.000 
G0 X96.525 Y-145.000 
G1 Z0.000 F1000.000 
G2 X93.475 Y-145.000 Z-0.900 I-1.525 J0.000 F1000.000 
G2 X96.525 Y-145.000 Z-1.800 I1.525 J0.000 F1000.000 
G2 X93.475 Y-145.000 Z-2.700 I-1.525 J0.000 F1000.000 
G2 X96.525 Y-145.000 Z-3.600 I1.525 J0.000 F1000.000 
G2 X93.475 Y-145.000 Z-4.500 I-1.525 J0.000 F1000.000 
G2 X96.525 Y-145.000 Z-5.400 I1.525 J0.000 F1000.000 
G2 X93.475 Y-145.000 Z-6.300 I-1.525 J0.000 F1000.000 
G2 X96.525 Y-145.000 Z-7.200 I1.525 J0.000 F1000.000 
G2 X93.475 Y-145.000 Z-8.100 I-1.525 J0.000 F1000.000 
G2 X96.525 Y-145.000 Z-9.000 I1.525 J0.000 F1000.000 
G2 X93.475 Y-145.000 Z-9.000 I-1.525 J0.000 F1000.000 
G2 X96.525 Y-145.000 Z-9.000 I1.525 J0.000 F1000.000 
G0 X95.000 Y-145.000 Z-9.000 
G0 Z0.000 
G0 X97.050 Y-145.000 
G1 Z0.000 F1000.000 
G2 X92.950 Y-145.000 Z-0.900 I-2.050 J0.000 F1000.000 
G2 X97.050 Y-145.000 Z-1.800 I2.050 J0.000 F1000.000 
G2 X92.950 Y-145.000 Z-2.700 I-2.050 J0.000 F1000.000 
G2 X97.050 Y-145.000 Z-3.600 I2.050 J0.000 F1000.000 
G2 X92.950 Y-145.000 Z-4.500 I-2.050 J0.000 F1000.000 
G2 X97.050 Y-145.000 Z-5.400 I2.050 J0.000 F1000.000 
G2 X92.950 Y-145.000 Z-6.300 I-2.050 J0.000 F1000.000 
G2 X97.050 Y-145.000 Z-7.200 I2.050 J0.000 F1000.000 
G2 X92.950 Y-145.000 Z-8.100 I-2.050 J0.000 F1000.000 
G2 X97.050 Y-145.000 Z-9.000 I2.050 J0.000 F1000.000 
G2 X92.950 Y-145.000 Z-9.000 I-2.050 J0.000 F1000.000 
G2 X97.050 Y-145.000 Z-9.000 I2.050 J0.000 F1000.000 
G0 X95.000 Y-145.000 Z-9.000 
G0 Z0.000 
G0 Z5.000 
G0 X135.000 Y-199.500 Z5.000 
G0 X135.000 Y-199.500 Z0.000 
G0 X135.050 Y-199.500 
G1 Z0.000 F1000.000 
G2 X134.950 Y-199.500 Z-0.900 I-0.050 J0.000 F1000.000 
G2 X135.050 Y-199.500 Z-1.800 I0.050 J0.000 F1000.000 
G2 X134.950 Y-199.500 Z-2.700 I-0.050 J0.000 F1000.000 
G2 X135.050 Y-199.500 Z-3.600 I0.050 J0.000 F1000.000 
G2 X134.950 Y-199.500 Z-4.500 I-0.050 J0.000 F1000.000 
G2 X135.050 Y-199.500 Z-5.400 I0.050 J0.000 F1000.000 
G2 X134.950 Y-199.500 Z-6.300 I-0.050 J0.000 F1000.000 
G2 X135.050 Y-199.500 Z-7.200 I0.050 J0.000 F1000.000 
G2 X134.950 Y-199.500 Z-8.100 I-0.050 J0.000 F1000.000 
G2 X135.050 Y-199.500 Z-9.000 I0.050 J0.000 F1000.000 
G2 X134.950 Y-199.500 Z-9.000 I-0.050 J0.000 F1000.000 
G2 X135.050 Y-199.500 Z-9.000 I0.050 J0.000 F1000.000 
G0 X135.000 Y-199.500 Z-9.000 
G0 Z0.000 
G0 Z5.000 
G0 X175.000 Y-145.000 Z5.000 
G0 X175.000 Y-145.000 Z0.000 
G0 X176.000 Y-145.000 
G1 Z0.000 F1000.000 
G2 X174.000 Y-145.000 Z-0.900 I-1.000 J0.000 F1000.000 
G2 X176.000 Y-145.000 Z-1.800 I1.000 J0.000 F1000.000 
G2 X174.000 Y-145.000 Z-2.700 I-1.000 J0.000 F1000.000 
G2 X176.000 Y-145.000 Z-3.600 I1.000 J0.000 F1000.000 
G2 X174.000 Y-145.000 Z-4.500 I-1.000 J0.000 F1000.000 
G2 X176.000 Y-145.000 Z-5.400 I1.000 J0.000 F1000.000 
G2 X174.000 Y-145.000 Z-6.300 I-1.000 J0.000 F1000.000 
G2 X176.000 Y-145.000 Z-7.200 I1.000 J0.000 F1000.000 
G2 X174.000 Y-145.000 Z-8.100 I-1.000 J0.000 F1000.000 
G2 X176.000 Y-145.000 Z-9.000 I1.000 J0.000 F1000.000 
G2 X174.000 Y-145.000 Z-9.000 I-1.000 J0.000 F1000.000 
G2 X176.000 Y-145.000 Z-9.000 I1.000 J0.000 F1000.000 
G0 X175.000 Y-145.000 Z-9.000 
G0 Z0.000 
G0 X176.525 Y-145.000 
G1 Z0.000 F1000.000 
G2 X173.475 Y-145.000 Z-0.900 I-1.525 J0.000 F1000.000 
G2 X176.525 Y-145.000 Z-1.800 I1.525 J0.000 F1000.000 
G2 X173.475 Y-145.000 Z-2.700 I-1.525 J0.000 F1000.000 
G2 X176.525 Y-145.000 Z-3.600 I1.525 J0.000 F1000.000 
G2 X173.475 Y-145.000 Z-4.500 I-1.525 J0.000 F1000.000 
G2 X176.525 Y-145.000 Z-5.400 I1.525 J0.000 F1000.000 
G2 X173.475 Y-145.000 Z-6.300 I-1.525 J0.000 F1000.000 
G2 X176.525 Y-145.000 Z-7.200 I1.525 J0.000 F1000.000 
G2 X173.475 Y-145.000 Z-8.100 I-1.525 J0.000 F1000.000 
G2 X176.525 Y-145.000 Z-9.000 I1.525 J0.000 F1000.000 
G2 X173.475 Y-145.000 Z-9.000 I-1.525 J0.000 F1000.000 
G2 X176.525 Y-145.000 Z-9.000 I1.525 J0.000 F1000.000 
G0 X175.000 Y-145.000 Z-9.000 
G0 Z0.000 
G0 X177.050 Y-145.000 
G1 Z0.000 F1000.000 
G2 X172.950 Y-145.000 Z-0.900 I-2.050 J0.000 F1000.000 
G2 X177.050 Y-145.000 Z-1.800 I2.050 J0.000 F1000.000 
G2 X172.950 Y-145.000 Z-2.700 I-2.050 J0.000 F1000.000 
G2 X177.050 Y-145.000 Z-3.600 I2.050 J0.000 F1000.000 
G2 X172.950 Y-145.000 Z-4.500 I-2.050 J0.000 F1000.000 
G2 X177.050 Y-145.000 Z-5.400 I2.050 J0.000 F1000.000 
G2 X172.950 Y-145.000 Z-6.300 I-2.050 J0.000 F1000.000 
G2 X177.050 Y-145.000 Z-7.200 I2.050 J0.000 F1000.000 
G2 X172.950 Y-145.000 Z-8.100 I-2.050 J0.000 F1000.000 
G2 X177.050 Y-145.000 Z-9.000 I2.050 J0.000 F1000.000 
G2 X172.950 Y-145.000 Z-9.000 I-2.050 J0.000 F1000.000 
G2 X177.050 Y-145.000 Z-9.000 I2.050 J0.000 F1000.000 
G0 X175.000 Y-145.000 Z-9.000 
G0 Z0.000 
G0 Z5.000 
G0 X251.000 Y-145.000 Z5.000 
G0 X251.000 Y-145.000 Z0.000 
G0 X251.050 Y-145.000 
G1 Z0.000 F1000.000 
G2 X250.950 Y-145.000 Z-0.900 I-0.050 J0.000 F1000.000 
G2 X251.050 Y-145.000 Z-1.800 I0.050 J0.000 F1000.000 
G2 X250.950 Y-145.000 Z-2.700 I-0.050 J0.000 F1000.000 
G2 X251.050 Y-145.000 Z-3.600 I0.050 J0.000 F1000.000 
G2 X250.950 Y-145.000 Z-4.500 I-0.050 J0.000 F1000.000 
G2 X251.050 Y-145.000 Z-5.400 I0.050 J0.000 F1000.000 
G2 X250.950 Y-145.000 Z-6.300 I-0.050 J0.000 F1000.000 
G2 X251.050 Y-145.000 Z-7.200 I0.050 J0.000 F1000.000 
G2 X250.950 Y-145.000 Z-8.100 I-0.050 J0.000 F1000.000 
G2 X251.050 Y-145.000 Z-9.000 I0.050 J0.000 F1000.000 
G2 X250.950 Y-145.000 Z-9.000 I-0.050 J0.000 F1000.000 
G2 X251.050 Y-145.000 Z-9.000 I0.050 J0.000 F1000.000 
G0 X251.000 Y-145.000 Z-9.000 
G0 Z0.000 
G0 Z5.000 
G0 X251.000 Y-175.000 Z5.000 
G0 X251.000 Y-175.000 Z0.000 
G0 X251.050 Y-175.000 
G1 Z0.000 F1000.000 
G2 X250.950 Y-175.000 Z-0.900 I-0.050 J0.000 F1000.000 
G2 X251.050 Y-175.000 Z-1.800 I0.050 J0.000 F1000.000 
G2 X250.950 Y-175.000 Z-2.700 I-0.050 J0.000 F1000.000 
G2 X251.050 Y-175.000 Z-3.600 I0.050 J0.000 F1000.000 
G2 X250.950 Y-175.000 Z-4.500 I-0.050 J0.000 F1000.000 
G2 X251.050 Y-175.000 Z-5.400 I0.050 J0.000 F1000.000 
G2 X250.950 Y-175.000 Z-6.300 I-0.050 J0.000 F1000.000 
G2 X251.050 Y-175.000 Z-7.200 I0.050 J0.000 F1000.000 
G2 X250.950 Y-175.000 Z-8.100 I-0.050 J0.000 F1000.000 
G2 X251.050 Y-175.000 Z-9.000 I0.050 J0.000 F1000.000 
G2 X250.950 Y-175.000 Z-9.000 I-0.050 J0.000 F1000.000 
G2 X251.050 Y-175.000 Z-9.000 I0.050 J0.000 F1000.000 
G0 X251.000 Y-175.000 Z-9.000 
G0 Z0.000 
G0 Z5.000 
G0 X235.000 Y-199.500 Z5.000 
G0 X235.000 Y-199.500 Z0.000 
G0 X235.050 Y-199.500 
G1 Z0.000 F1000.000 
G2 X234.950 Y-199.500 Z-0.900 I-0.050 J0.000 F1000.000 
G2 X235.050 Y-199.500 Z-1.800 I0.050 J0.000 F1000.000 
G2 X234.950 Y-199.500 Z-2.700 I-0.050 J0.000 F1000.000 
G2 X235.050 Y-199.500 Z-3.600 I0.050 J0.000 F1000.000 
G2 X234.950 Y-199.500 Z-4.500 I-0.050 J0.000 F1000.000 
G2 X235.050 Y-199.500 Z-5.400 I0.050 J0.000 F1000.000 
G2 X234.950 Y-199.500 Z-6.300 I-0.050 J0.000 F1000.000 
G2 X235.050 Y-199.500 Z-7.200 I0.050 J0.000 F1000.000 
G2 X234.950 Y-199.500 Z-8.100 I-0.050 J0.000 F1000.000 
G2 X235.050 Y-199.500 Z-9.000 I0.050 J0.000 F1000.000 
G2 X234.950 Y-199.500 Z-9.000 I-0.050 J0.000 F1000.000 
G2 X235.050 Y-199.500 Z-9.000 I0.050 J0.000 F1000.000 
G0 X235.000 Y-199.500 Z-9.000 
G0 Z0.000 
G0 Z5.000 
G0 X251.000 Y-115.000 Z5.000 
G0 X251.000 Y-115.000 Z0.000 
G0 X251.050 Y-115.000 
G1 Z0.000 F1000.000 
G2 X250.950 Y-115.000 Z-0.900 I-0.050 J0.000 F1000.000 
G2 X251.050 Y-115.000 Z-1.800 I0.050 J0.000 F1000.000 
G2 X250.950 Y-115.000 Z-2.700 I-0.050 J0.000 F1000.000 
G2 X251.050 Y-115.000 Z-3.600 I0.050 J0.000 F1000.000 
G2 X250.950 Y-115.000 Z-4.500 I-0.050 J0.000 F1000.000 
G2 X251.050 Y-115.000 Z-5.400 I0.050 J0.000 F1000.000 
G2 X250.950 Y-115.000 Z-6.300 I-0.050 J0.000 F1000.000 
G2 X251.050 Y-115.000 Z-7.200 I0.050 J0.000 F1000.000 
G2 X250.950 Y-115.000 Z-8.100 I-0.050 J0.000 F1000.000 
G2 X251.050 Y-115.000 Z-9.000 I0.050 J0.000 F1000.000 
G2 X250.950 Y-115.000 Z-9.000 I-0.050 J0.000 F1000.000 
G2 X251.050 Y-115.000 Z-9.000 I0.050 J0.000 F1000.000 
G0 X251.000 Y-115.000 Z-9.000 
G0 Z0.000 
G0 Z5.000 
G0 X251.000 Y-85.000 Z5.000 
G0 X251.000 Y-85.000 Z0.000 
G0 X251.050 Y-85.000 
G1 Z0.000 F1000.000 
G2 X250.950 Y-85.000 Z-0.900 I-0.050 J0.000 F1000.000 
G2 X251.050 Y-85.000 Z-1.800 I0.050 J0.000 F1000.000 
G2 X250.950 Y-85.000 Z-2.700 I-0.050 J0.000 F1000.000 
G2 X251.050 Y-85.000 Z-3.600 I0.050 J0.000 F1000.000 
G2 X250.950 Y-85.000 Z-4.500 I-0.050 J0.000 F1000.000 
G2 X251.050 Y-85.000 Z-5.400 I0.050 J0.000 F1000.000 
G2 X250.950 Y-85.000 Z-6.300 I-0.050 J0.000 F1000.000 
G2 X251.050 Y-85.000 Z-7.200 I0.050 J0.000 F1000.000 
G2 X250.950 Y-85.000 Z-8.100 I-0.050 J0.000 F1000.000 
G2 X251.050 Y-85.000 Z-9.000 I0.050 J0.000 F1000.000 
G2 X250.950 Y-85.000 Z-9.000 I-0.050 J0.000 F1000.000 
G2 X251.050 Y-85.000 Z-9.000 I0.050 J0.000 F1000.000 
G0 X251.000 Y-85.000 Z-9.000 
G0 Z0.000 
G0 Z5.000 
G0 X251.000 Y-55.000 Z5.000 
G0 X251.000 Y-55.000 Z0.000 
G0 X251.050 Y-55.000 
G1 Z0.000 F1000.000 
G2 X250.950 Y-55.000 Z-0.900 I-0.050 J0.000 F1000.000 
G2 X251.050 Y-55.000 Z-1.800 I0.050 J0.000 F1000.000 
G2 X250.950 Y-55.000 Z-2.700 I-0.050 J0.000 F1000.000 
G2 X251.050 Y-55.000 Z-3.600 I0.050 J0.000 F1000.000 
G2 X250.950 Y-55.000 Z-4.500 I-0.050 J0.000 F1000.000 
G2 X251.050 Y-55.000 Z-5.400 I0.050 J0.000 F1000.000 
G2 X250.950 Y-55.000 Z-6.300 I-0.050 J0.000 F1000.000 
G2 X251.050 Y-55.000 Z-7.200 I0.050 J0.000 F1000.000 
G2 X250.950 Y-55.000 Z-8.100 I-0.050 J0.000 F1000.000 
G2 X251.050 Y-55.000 Z-9.000 I0.050 J0.000 F1000.000 
G2 X250.950 Y-55.000 Z-9.000 I-0.050 J0.000 F1000.000 
G2 X251.050 Y-55.000 Z-9.000 I0.050 J0.000 F1000.000 
G0 X251.000 Y-55.000 Z-9.000 
G0 Z0.000 
G0 Z5.000 
G0 X251.000 Y-25.000 Z5.000 
G0 X251.000 Y-25.000 Z0.000 
G0 X251.050 Y-25.000 
G1 Z0.000 F1000.000 
G2 X250.950 Y-25.000 Z-0.900 I-0.050 J0.000 F1000.000 
G2 X251.050 Y-25.000 Z-1.800 I0.050 J0.000 F1000.000 
G2 X250.950 Y-25.000 Z-2.700 I-0.050 J0.000 F1000.000 
G2 X251.050 Y-25.000 Z-3.600 I0.050 J0.000 F1000.000 
G2 X250.950 Y-25.000 Z-4.500 I-0.050 J0.000 F1000.000 
G2 X251.050 Y-25.000 Z-5.400 I0.050 J0.000 F1000.000 
G2 X250.950 Y-25.000 Z-6.300 I-0.050 J0.000 F1000.000 
G2 X251.050 Y-25.000 Z-7.200 I0.050 J0.000 F1000.000 
G2 X250.950 Y-25.000 Z-8.100 I-0.050 J0.000 F1000.000 
G2 X251.050 Y-25.000 Z-9.000 I0.050 J0.000 F1000.000 
G2 X250.950 Y-25.000 Z-9.000 I-0.050 J0.000 F1000.000 
G2 X251.050 Y-25.000 Z-9.000 I0.050 J0.000 F1000.000 
G0 X251.000 Y-25.000 Z-9.000 
G0 Z0.000 
G0 Z5.000 
G0 X235.000 Y-10.500 Z5.000 
G0 X235.000 Y-10.500 Z0.000 
G0 X235.050 Y-10.500 
G1 Z0.000 F1000.000 
G2 X234.950 Y-10.500 Z-0.900 I-0.050 J0.000 F1000.000 
G2 X235.050 Y-10.500 Z-1.800 I0.050 J0.000 F1000.000 
G2 X234.950 Y-10.500 Z-2.700 I-0.050 J0.000 F1000.000 
G2 X235.050 Y-10.500 Z-3.600 I0.050 J0.000 F1000.000 
G2 X234.950 Y-10.500 Z-4.500 I-0.050 J0.000 F1000.000 
G2 X235.050 Y-10.500 Z-5.400 I0.050 J0.000 F1000.000 
G2 X234.950 Y-10.500 Z-6.300 I-0.050 J0.000 F1000.000 
G2 X235.050 Y-10.500 Z-7.200 I0.050 J0.000 F1000.000 
G2 X234.950 Y-10.500 Z-8.100 I-0.050 J0.000 F1000.000 
G2 X235.050 Y-10.500 Z-9.000 I0.050 J0.000 F1000.000 
G2 X234.950 Y-10.500 Z-9.000 I-0.050 J0.000 F1000.000 
G2 X235.050 Y-10.500 Z-9.000 I0.050 J0.000 F1000.000 
G0 X235.000 Y-10.500 Z-9.000 
G0 Z0.000 
G0 Z5.000 
G0 X175.000 Y-55.000 Z5.000 
G0 X175.000 Y-55.000 Z0.000 
G0 X176.000 Y-55.000 
G1 Z0.000 F1000.000 
G2 X174.000 Y-55.000 Z-0.900 I-1.000 J0.000 F1000.000 
G2 X176.000 Y-55.000 Z-1.800 I1.000 J0.000 F1000.000 
G2 X174.000 Y-55.000 Z-2.700 I-1.000 J0.000 F1000.000 
G2 X176.000 Y-55.000 Z-3.600 I1.000 J0.000 F1000.000 
G2 X174.000 Y-55.000 Z-4.500 I-1.000 J0.000 F1000.000 
G2 X176.000 Y-55.000 Z-5.400 I1.000 J0.000 F1000.000 
G2 X174.000 Y-55.000 Z-6.300 I-1.000 J0.000 F1000.000 
G2 X176.000 Y-55.000 Z-7.200 I1.000 J0.000 F1000.000 
G2 X174.000 Y-55.000 Z-8.100 I-1.000 J0.000 F1000.000 
G2 X176.000 Y-55.000 Z-9.000 I1.000 J0.000 F1000.000 
G2 X174.000 Y-55.000 Z-9.000 I-1.000 J0.000 F1000.000 
G2 X176.000 Y-55.000 Z-9.000 I1.000 J0.000 F1000.000 
G0 X175.000 Y-55.000 Z-9.000 
G0 Z0.000 
G0 X176.525 Y-55.000 
G1 Z0.000 F1000.000 
G2 X173.475 Y-55.000 Z-0.900 I-1.525 J0.000 F1000.000 
G2 X176.525 Y-55.000 Z-1.800 I1.525 J0.000 F1000.000 
G2 X173.475 Y-55.000 Z-2.700 I-1.525 J0.000 F1000.000 
G2 X176.525 Y-55.000 Z-3.600 I1.525 J0.000 F1000.000 
G2 X173.475 Y-55.000 Z-4.500 I-1.525 J0.000 F1000.000 
G2 X176.525 Y-55.000 Z-5.400 I1.525 J0.000 F1000.000 
G2 X173.475 Y-55.000 Z-6.300 I-1.525 J0.000 F1000.000 
G2 X176.525 Y-55.000 Z-7.200 I1.525 J0.000 F1000.000 
G2 X173.475 Y-55.000 Z-8.100 I-1.525 J0.000 F1000.000 
G2 X176.525 Y-55.000 Z-9.000 I1.525 J0.000 F1000.000 
G2 X173.475 Y-55.000 Z-9.000 I-1.525 J0.000 F1000.000 
G2 X176.525 Y-55.000 Z-9.000 I1.525 J0.000 F1000.000 
G0 X175.000 Y-55.000 Z-9.000 
G0 Z0.000 
G0 X177.050 Y-55.000 
G1 Z0.000 F1000.000 
G2 X172.950 Y-55.000 Z-0.900 I-2.050 J0.000 F1000.000 
G2 X177.050 Y-55.000 Z-1.800 I2.050 J0.000 F1000.000 
G2 X172.950 Y-55.000 Z-2.700 I-2.050 J0.000 F1000.000 
G2 X177.050 Y-55.000 Z-3.600 I2.050 J0.000 F1000.000 
G2 X172.950 Y-55.000 Z-4.500 I-2.050 J0.000 F1000.000 
G2 X177.050 Y-55.000 Z-5.400 I2.050 J0.000 F1000.000 
G2 X172.950 Y-55.000 Z-6.300 I-2.050 J0.000 F1000.000 
G2 X177.050 Y-55.000 Z-7.200 I2.050 J0.000 F1000.000 
G2 X172.950 Y-55.000 Z-8.100 I-2.050 J0.000 F1000.000 
G2 X177.050 Y-55.000 Z-9.000 I2.050 J0.000 F1000.000 
G2 X172.950 Y-55.000 Z-9.000 I-2.050 J0.000 F1000.000 
G2 X177.050 Y-55.000 Z-9.000 I2.050 J0.000 F1000.000 
G0 X175.000 Y-55.000 Z-9.000 
G0 Z0.000 
G0 Z5.000 
G0 X135.000 Y-10.500 Z5.000 
G0 X135.000 Y-10.500 Z0.000 
G0 X135.050 Y-10.500 
G1 Z0.000 F1000.000 
G2 X134.950 Y-10.500 Z-0.900 I-0.050 J0.000 F1000.000 
G2 X135.050 Y-10.500 Z-1.800 I0.050 J0.000 F1000.000 
G2 X134.950 Y-10.500 Z-2.700 I-0.050 J0.000 F1000.000 
G2 X135.050 Y-10.500 Z-3.600 I0.050 J0.000 F1000.000 
G2 X134.950 Y-10.500 Z-4.500 I-0.050 J0.000 F1000.000 
G2 X135.050 Y-10.500 Z-5.400 I0.050 J0.000 F1000.000 
G2 X134.950 Y-10.500 Z-6.300 I-0.050 J0.000 F1000.000 
G2 X135.050 Y-10.500 Z-7.200 I0.050 J0.000 F1000.000 
G2 X134.950 Y-10.500 Z-8.100 I-0.050 J0.000 F1000.000 
G2 X135.050 Y-10.500 Z-9.000 I0.050 J0.000 F1000.000 
G2 X134.950 Y-10.500 Z-9.000 I-0.050 J0.000 F1000.000 
G2 X135.050 Y-10.500 Z-9.000 I0.050 J0.000 F1000.000 
G0 X135.000 Y-10.500 Z-9.000 
G0 Z0.000 
G0 Z5.000 
G0 X95.000 Y-55.000 Z5.000 
G0 X95.000 Y-55.000 Z0.000 
G0 X96.000 Y-55.000 
G1 Z0.000 F1000.000 
G2 X94.000 Y-55.000 Z-0.900 I-1.000 J0.000 F1000.000 
G2 X96.000 Y-55.000 Z-1.800 I1.000 J0.000 F1000.000 
G2 X94.000 Y-55.000 Z-2.700 I-1.000 J0.000 F1000.000 
G2 X96.000 Y-55.000 Z-3.600 I1.000 J0.000 F1000.000 
G2 X94.000 Y-55.000 Z-4.500 I-1.000 J0.000 F1000.000 
G2 X96.000 Y-55.000 Z-5.400 I1.000 J0.000 F1000.000 
G2 X94.000 Y-55.000 Z-6.300 I-1.000 J0.000 F1000.000 
G2 X96.000 Y-55.000 Z-7.200 I1.000 J0.000 F1000.000 
G2 X94.000 Y-55.000 Z-8.100 I-1.000 J0.000 F1000.000 
G2 X96.000 Y-55.000 Z-9.000 I1.000 J0.000 F1000.000 
G2 X94.000 Y-55.000 Z-9.000 I-1.000 J0.000 F1000.000 
G2 X96.000 Y-55.000 Z-9.000 I1.000 J0.000 F1000.000 
G0 X95.000 Y-55.000 Z-9.000 
G0 Z0.000 
G0 X96.525 Y-55.000 
G1 Z0.000 F1000.000 
G2 X93.475 Y-55.000 Z-0.900 I-1.525 J0.000 F1000.000 
G2 X96.525 Y-55.000 Z-1.800 I1.525 J0.000 F1000.000 
G2 X93.475 Y-55.000 Z-2.700 I-1.525 J0.000 F1000.000 
G2 X96.525 Y-55.000 Z-3.600 I1.525 J0.000 F1000.000 
G2 X93.475 Y-55.000 Z-4.500 I-1.525 J0.000 F1000.000 
G2 X96.525 Y-55.000 Z-5.400 I1.525 J0.000 F1000.000 
G2 X93.475 Y-55.000 Z-6.300 I-1.525 J0.000 F1000.000 
G2 X96.525 Y-55.000 Z-7.200 I1.525 J0.000 F1000.000 
G2 X93.475 Y-55.000 Z-8.100 I-1.525 J0.000 F1000.000 
G2 X96.525 Y-55.000 Z-9.000 I1.525 J0.000 F1000.000 
G2 X93.475 Y-55.000 Z-9.000 I-1.525 J0.000 F1000.000 
G2 X96.525 Y-55.000 Z-9.000 I1.525 J0.000 F1000.000 
G0 X95.000 Y-55.000 Z-9.000 
G0 Z0.000 
G0 X97.050 Y-55.000 
G1 Z0.000 F1000.000 
G2 X92.950 Y-55.000 Z-0.900 I-2.050 J0.000 F1000.000 
G2 X97.050 Y-55.000 Z-1.800 I2.050 J0.000 F1000.000 
G2 X92.950 Y-55.000 Z-2.700 I-2.050 J0.000 F1000.000 
G2 X97.050 Y-55.000 Z-3.600 I2.050 J0.000 F1000.000 
G2 X92.950 Y-55.000 Z-4.500 I-2.050 J0.000 F1000.000 
G2 X97.050 Y-55.000 Z-5.400 I2.050 J0.000 F1000.000 
G2 X92.950 Y-55.000 Z-6.300 I-2.050 J0.000 F1000.000 
G2 X97.050 Y-55.000 Z-7.200 I2.050 J0.000 F1000.000 
G2 X92.950 Y-55.000 Z-8.100 I-2.050 J0.000 F1000.000 
G2 X97.050 Y-55.000 Z-9.000 I2.050 J0.000 F1000.000 
G2 X92.950 Y-55.000 Z-9.000 I-2.050 J0.000 F1000.000 
G2 X97.050 Y-55.000 Z-9.000 I2.050 J0.000 F1000.000 
G0 X95.000 Y-55.000 Z-9.000 
G0 Z0.000 
G0 Z5.000 
(finish operation: Helix)
(begin operation: Helix001)
(machine units: mm/min)
(Helix001) 
(helix cut operation) 
G0 Z5.000 
G0 Z5.000 
G0 X95.000 Y-55.000 Z5.000 
G0 X95.000 Y-55.000 Z0.000 
G0 X96.000 Y-55.000 
G1 Z0.000 F1000.000 
G2 X94.000 Y-55.000 Z-0.833 I-1.000 J0.000 F1000.000 
G2 X96.000 Y-55.000 Z-1.667 I1.000 J0.000 F1000.000 
G2 X94.000 Y-55.000 Z-2.500 I-1.000 J0.000 F1000.000 
G2 X96.000 Y-55.000 Z-3.333 I1.000 J0.000 F1000.000 
G2 X94.000 Y-55.000 Z-4.167 I-1.000 J0.000 F1000.000 
G2 X96.000 Y-55.000 Z-5.000 I1.000 J0.000 F1000.000 
G2 X94.000 Y-55.000 Z-5.000 I-1.000 J0.000 F1000.000 
G2 X96.000 Y-55.000 Z-5.000 I1.000 J0.000 F1000.000 
G0 X95.000 Y-55.000 Z-5.000 
G0 Z0.000 
G0 X97.000 Y-55.000 
G1 Z0.000 F1000.000 
G2 X93.000 Y-55.000 Z-0.833 I-2.000 J0.000 F1000.000 
G2 X97.000 Y-55.000 Z-1.667 I2.000 J0.000 F1000.000 
G2 X93.000 Y-55.000 Z-2.500 I-2.000 J0.000 F1000.000 
G2 X97.000 Y-55.000 Z-3.333 I2.000 J0.000 F1000.000 
G2 X93.000 Y-55.000 Z-4.167 I-2.000 J0.000 F1000.000 
G2 X97.000 Y-55.000 Z-5.000 I2.000 J0.000 F1000.000 
G2 X93.000 Y-55.000 Z-5.000 I-2.000 J0.000 F1000.000 
G2 X97.000 Y-55.000 Z-5.000 I2.000 J0.000 F1000.000 
G0 X95.000 Y-55.000 Z-5.000 
G0 Z0.000 
G0 X98.000 Y-55.000 
G1 Z0.000 F1000.000 
G2 X92.000 Y-55.000 Z-0.833 I-3.000 J0.000 F1000.000 
G2 X98.000 Y-55.000 Z-1.667 I3.000 J0.000 F1000.000 
G2 X92.000 Y-55.000 Z-2.500 I-3.000 J0.000 F1000.000 
G2 X98.000 Y-55.000 Z-3.333 I3.000 J0.000 F1000.000 
G2 X92.000 Y-55.000 Z-4.167 I-3.000 J0.000 F1000.000 
G2 X98.000 Y-55.000 Z-5.000 I3.000 J0.000 F1000.000 
G2 X92.000 Y-55.000 Z-5.000 I-3.000 J0.000 F1000.000 
G2 X98.000 Y-55.000 Z-5.000 I3.000 J0.000 F1000.000 
G0 X95.000 Y-55.000 Z-5.000 
G0 Z0.000 
G0 X99.000 Y-55.000 
G1 Z0.000 F1000.000 
G2 X91.000 Y-55.000 Z-0.833 I-4.000 J0.000 F1000.000 
G2 X99.000 Y-55.000 Z-1.667 I4.000 J0.000 F1000.000 
G2 X91.000 Y-55.000 Z-2.500 I-4.000 J0.000 F1000.000 
G2 X99.000 Y-55.000 Z-3.333 I4.000 J0.000 F1000.000 
G2 X91.000 Y-55.000 Z-4.167 I-4.000 J0.000 F1000.000 
G2 X99.000 Y-55.000 Z-5.000 I4.000 J0.000 F1000.000 
G2 X91.000 Y-55.000 Z-5.000 I-4.000 J0.000 F1000.000 
G2 X99.000 Y-55.000 Z-5.000 I4.000 J0.000 F1000.000 
G0 X95.000 Y-55.000 Z-5.000 
G0 Z0.000 
G0 X100.000 Y-55.000 
G1 Z0.000 F1000.000 
G2 X90.000 Y-55.000 Z-0.833 I-5.000 J0.000 F1000.000 
G2 X100.000 Y-55.000 Z-1.667 I5.000 J0.000 F1000.000 
G2 X90.000 Y-55.000 Z-2.500 I-5.000 J0.000 F1000.000 
G2 X100.000 Y-55.000 Z-3.333 I5.000 J0.000 F1000.000 
G2 X90.000 Y-55.000 Z-4.167 I-5.000 J0.000 F1000.000 
G2 X100.000 Y-55.000 Z-5.000 I5.000 J0.000 F1000.000 
G2 X90.000 Y-55.000 Z-5.000 I-5.000 J0.000 F1000.000 
G2 X100.000 Y-55.000 Z-5.000 I5.000 J0.000 F1000.000 
G0 X95.000 Y-55.000 Z-5.000 
G0 Z0.000 
G0 Z5.000 
G0 X175.000 Y-55.000 Z5.000 
G0 X175.000 Y-55.000 Z0.000 
G0 X176.000 Y-55.000 
G1 Z0.000 F1000.000 
G2 X174.000 Y-55.000 Z-0.833 I-1.000 J0.000 F1000.000 
G2 X176.000 Y-55.000 Z-1.667 I1.000 J0.000 F1000.000 
G2 X174.000 Y-55.000 Z-2.500 I-1.000 J0.000 F1000.000 
G2 X176.000 Y-55.000 Z-3.333 I1.000 J0.000 F1000.000 
G2 X174.000 Y-55.000 Z-4.167 I-1.000 J0.000 F1000.000 
G2 X176.000 Y-55.000 Z-5.000 I1.000 J0.000 F1000.000 
G2 X174.000 Y-55.000 Z-5.000 I-1.000 J0.000 F1000.000 
G2 X176.000 Y-55.000 Z-5.000 I1.000 J0.000 F1000.000 
G0 X175.000 Y-55.000 Z-5.000 
G0 Z0.000 
G0 X177.000 Y-55.000 
G1 Z0.000 F1000.000 
G2 X173.000 Y-55.000 Z-0.833 I-2.000 J0.000 F1000.000 
G2 X177.000 Y-55.000 Z-1.667 I2.000 J0.000 F1000.000 
G2 X173.000 Y-55.000 Z-2.500 I-2.000 J0.000 F1000.000 
G2 X177.000 Y-55.000 Z-3.333 I2.000 J0.000 F1000.000 
G2 X173.000 Y-55.000 Z-4.167 I-2.000 J0.000 F1000.000 
G2 X177.000 Y-55.000 Z-5.000 I2.000 J0.000 F1000.000 
G2 X173.000 Y-55.000 Z-5.000 I-2.000 J0.000 F1000.000 
G2 X177.000 Y-55.000 Z-5.000 I2.000 J0.000 F1000.000 
G0 X175.000 Y-55.000 Z-5.000 
G0 Z0.000 
G0 X178.000 Y-55.000 
G1 Z0.000 F1000.000 
G2 X172.000 Y-55.000 Z-0.833 I-3.000 J0.000 F1000.000 
G2 X178.000 Y-55.000 Z-1.667 I3.000 J0.000 F1000.000 
G2 X172.000 Y-55.000 Z-2.500 I-3.000 J0.000 F1000.000 
G2 X178.000 Y-55.000 Z-3.333 I3.000 J0.000 F1000.000 
G2 X172.000 Y-55.000 Z-4.167 I-3.000 J0.000 F1000.000 
G2 X178.000 Y-55.000 Z-5.000 I3.000 J0.000 F1000.000 
G2 X172.000 Y-55.000 Z-5.000 I-3.000 J0.000 F1000.000 
G2 X178.000 Y-55.000 Z-5.000 I3.000 J0.000 F1000.000 
G0 X175.000 Y-55.000 Z-5.000 
G0 Z0.000 
G0 X179.000 Y-55.000 
G1 Z0.000 F1000.000 
G2 X171.000 Y-55.000 Z-0.833 I-4.000 J0.000 F1000.000 
G2 X179.000 Y-55.000 Z-1.667 I4.000 J0.000 F1000.000 
G2 X171.000 Y-55.000 Z-2.500 I-4.000 J0.000 F1000.000 
G2 X179.000 Y-55.000 Z-3.333 I4.000 J0.000 F1000.000 
G2 X171.000 Y-55.000 Z-4.167 I-4.000 J0.000 F1000.000 
G2 X179.000 Y-55.000 Z-5.000 I4.000 J0.000 F1000.000 
G2 X171.000 Y-55.000 Z-5.000 I-4.000 J0.000 F1000.000 
G2 X179.000 Y-55.000 Z-5.000 I4.000 J0.000 F1000.000 
G0 X175.000 Y-55.000 Z-5.000 
G0 Z0.000 
G0 X180.000 Y-55.000 
G1 Z0.000 F1000.000 
G2 X170.000 Y-55.000 Z-0.833 I-5.000 J0.000 F1000.000 
G2 X180.000 Y-55.000 Z-1.667 I5.000 J0.000 F1000.000 
G2 X170.000 Y-55.000 Z-2.500 I-5.000 J0.000 F1000.000 
G2 X180.000 Y-55.000 Z-3.333 I5.000 J0.000 F1000.000 
G2 X170.000 Y-55.000 Z-4.167 I-5.000 J0.000 F1000.000 
G2 X180.000 Y-55.000 Z-5.000 I5.000 J0.000 F1000.000 
G2 X170.000 Y-55.000 Z-5.000 I-5.000 J0.000 F1000.000 
G2 X180.000 Y-55.000 Z-5.000 I5.000 J0.000 F1000.000 
G0 X175.000 Y-55.000 Z-5.000 
G0 Z0.000 
G0 Z5.000 
G0 X175.000 Y-145.000 Z5.000 
G0 X175.000 Y-145.000 Z0.000 
G0 X176.000 Y-145.000 
G1 Z0.000 F1000.000 
G2 X174.000 Y-145.000 Z-0.833 I-1.000 J0.000 F1000.000 
G2 X176.000 Y-145.000 Z-1.667 I1.000 J0.000 F1000.000 
G2 X174.000 Y-145.000 Z-2.500 I-1.000 J0.000 F1000.000 
G2 X176.000 Y-145.000 Z-3.333 I1.000 J0.000 F1000.000 
G2 X174.000 Y-145.000 Z-4.167 I-1.000 J0.000 F1000.000 
G2 X176.000 Y-145.000 Z-5.000 I1.000 J0.000 F1000.000 
G2 X174.000 Y-145.000 Z-5.000 I-1.000 J0.000 F1000.000 
G2 X176.000 Y-145.000 Z-5.000 I1.000 J0.000 F1000.000 
G0 X175.000 Y-145.000 Z-5.000 
G0 Z0.000 
G0 X177.000 Y-145.000 
G1 Z0.000 F1000.000 
G2 X173.000 Y-145.000 Z-0.833 I-2.000 J0.000 F1000.000 
G2 X177.000 Y-145.000 Z-1.667 I2.000 J0.000 F1000.000 
G2 X173.000 Y-145.000 Z-2.500 I-2.000 J0.000 F1000.000 
G2 X177.000 Y-145.000 Z-3.333 I2.000 J0.000 F1000.000 
G2 X173.000 Y-145.000 Z-4.167 I-2.000 J0.000 F1000.000 
G2 X177.000 Y-145.000 Z-5.000 I2.000 J0.000 F1000.000 
G2 X173.000 Y-145.000 Z-5.000 I-2.000 J0.000 F1000.000 
G2 X177.000 Y-145.000 Z-5.000 I2.000 J0.000 F1000.000 
G0 X175.000 Y-145.000 Z-5.000 
G0 Z0.000 
G0 X178.000 Y-145.000 
G1 Z0.000 F1000.000 
G2 X172.000 Y-145.000 Z-0.833 I-3.000 J0.000 F1000.000 
G2 X178.000 Y-145.000 Z-1.667 I3.000 J0.000 F1000.000 
G2 X172.000 Y-145.000 Z-2.500 I-3.000 J0.000 F1000.000 
G2 X178.000 Y-145.000 Z-3.333 I3.000 J0.000 F1000.000 
G2 X172.000 Y-145.000 Z-4.167 I-3.000 J0.000 F1000.000 
G2 X178.000 Y-145.000 Z-5.000 I3.000 J0.000 F1000.000 
G2 X172.000 Y-145.000 Z-5.000 I-3.000 J0.000 F1000.000 
G2 X178.000 Y-145.000 Z-5.000 I3.000 J0.000 F1000.000 
G0 X175.000 Y-145.000 Z-5.000 
G0 Z0.000 
G0 X179.000 Y-145.000 
G1 Z0.000 F1000.000 
G2 X171.000 Y-145.000 Z-0.833 I-4.000 J0.000 F1000.000 
G2 X179.000 Y-145.000 Z-1.667 I4.000 J0.000 F1000.000 
G2 X171.000 Y-145.000 Z-2.500 I-4.000 J0.000 F1000.000 
G2 X179.000 Y-145.000 Z-3.333 I4.000 J0.000 F1000.000 
G2 X171.000 Y-145.000 Z-4.167 I-4.000 J0.000 F1000.000 
G2 X179.000 Y-145.000 Z-5.000 I4.000 J0.000 F1000.000 
G2 X171.000 Y-145.000 Z-5.000 I-4.000 J0.000 F1000.000 
G2 X179.000 Y-145.000 Z-5.000 I4.000 J0.000 F1000.000 
G0 X175.000 Y-145.000 Z-5.000 
G0 Z0.000 
G0 X180.000 Y-145.000 
G1 Z0.000 F1000.000 
G2 X170.000 Y-145.000 Z-0.833 I-5.000 J0.000 F1000.000 
G2 X180.000 Y-145.000 Z-1.667 I5.000 J0.000 F1000.000 
G2 X170.000 Y-145.000 Z-2.500 I-5.000 J0.000 F1000.000 
G2 X180.000 Y-145.000 Z-3.333 I5.000 J0.000 F1000.000 
G2 X170.000 Y-145.000 Z-4.167 I-5.000 J0.000 F1000.000 
G2 X180.000 Y-145.000 Z-5.000 I5.000 J0.000 F1000.000 
G2 X170.000 Y-145.000 Z-5.000 I-5.000 J0.000 F1000.000 
G2 X180.000 Y-145.000 Z-5.000 I5.000 J0.000 F1000.000 
G0 X175.000 Y-145.000 Z-5.000 
G0 Z0.000 
G0 Z5.000 
G0 X95.000 Y-145.000 Z5.000 
G0 X95.000 Y-145.000 Z0.000 
G0 X96.000 Y-145.000 
G1 Z0.000 F1000.000 
G2 X94.000 Y-145.000 Z-0.833 I-1.000 J0.000 F1000.000 
G2 X96.000 Y-145.000 Z-1.667 I1.000 J0.000 F1000.000 
G2 X94.000 Y-145.000 Z-2.500 I-1.000 J0.000 F1000.000 
G2 X96.000 Y-145.000 Z-3.333 I1.000 J0.000 F1000.000 
G2 X94.000 Y-145.000 Z-4.167 I-1.000 J0.000 F1000.000 
G2 X96.000 Y-145.000 Z-5.000 I1.000 J0.000 F1000.000 
G2 X94.000 Y-145.000 Z-5.000 I-1.000 J0.000 F1000.000 
G2 X96.000 Y-145.000 Z-5.000 I1.000 J0.000 F1000.000 
G0 X95.000 Y-145.000 Z-5.000 
G0 Z0.000 
G0 X97.000 Y-145.000 
G1 Z0.000 F1000.000 
G2 X93.000 Y-145.000 Z-0.833 I-2.000 J0.000 F1000.000 
G2 X97.000 Y-145.000 Z-1.667 I2.000 J0.000 F1000.000 
G2 X93.000 Y-145.000 Z-2.500 I-2.000 J0.000 F1000.000 
G2 X97.000 Y-145.000 Z-3.333 I2.000 J0.000 F1000.000 
G2 X93.000 Y-145.000 Z-4.167 I-2.000 J0.000 F1000.000 
G2 X97.000 Y-145.000 Z-5.000 I2.000 J0.000 F1000.000 
G2 X93.000 Y-145.000 Z-5.000 I-2.000 J0.000 F1000.000 
G2 X97.000 Y-145.000 Z-5.000 I2.000 J0.000 F1000.000 
G0 X95.000 Y-145.000 Z-5.000 
G0 Z0.000 
G0 X98.000 Y-145.000 
G1 Z0.000 F1000.000 
G2 X92.000 Y-145.000 Z-0.833 I-3.000 J0.000 F1000.000 
G2 X98.000 Y-145.000 Z-1.667 I3.000 J0.000 F1000.000 
G2 X92.000 Y-145.000 Z-2.500 I-3.000 J0.000 F1000.000 
G2 X98.000 Y-145.000 Z-3.333 I3.000 J0.000 F1000.000 
G2 X92.000 Y-145.000 Z-4.167 I-3.000 J0.000 F1000.000 
G2 X98.000 Y-145.000 Z-5.000 I3.000 J0.000 F1000.000 
G2 X92.000 Y-145.000 Z-5.000 I-3.000 J0.000 F1000.000 
G2 X98.000 Y-145.000 Z-5.000 I3.000 J0.000 F1000.000 
G0 X95.000 Y-145.000 Z-5.000 
G0 Z0.000 
G0 X99.000 Y-145.000 
G1 Z0.000 F1000.000 
G2 X91.000 Y-145.000 Z-0.833 I-4.000 J0.000 F1000.000 
G2 X99.000 Y-145.000 Z-1.667 I4.000 J0.000 F1000.000 
G2 X91.000 Y-145.000 Z-2.500 I-4.000 J0.000 F1000.000 
G2 X99.000 Y-145.000 Z-3.333 I4.000 J0.000 F1000.000 
G2 X91.000 Y-145.000 Z-4.167 I-4.000 J0.000 F1000.000 
G2 X99.000 Y-145.000 Z-5.000 I4.000 J0.000 F1000.000 
G2 X91.000 Y-145.000 Z-5.000 I-4.000 J0.000 F1000.000 
G2 X99.000 Y-145.000 Z-5.000 I4.000 J0.000 F1000.000 
G0 X95.000 Y-145.000 Z-5.000 
G0 Z0.000 
G0 X100.000 Y-145.000 
G1 Z0.000 F1000.000 
G2 X90.000 Y-145.000 Z-0.833 I-5.000 J0.000 F1000.000 
G2 X100.000 Y-145.000 Z-1.667 I5.000 J0.000 F1000.000 
G2 X90.000 Y-145.000 Z-2.500 I-5.000 J0.000 F1000.000 
G2 X100.000 Y-145.000 Z-3.333 I5.000 J0.000 F1000.000 
G2 X90.000 Y-145.000 Z-4.167 I-5.000 J0.000 F1000.000 
G2 X100.000 Y-145.000 Z-5.000 I5.000 J0.000 F1000.000 
G2 X90.000 Y-145.000 Z-5.000 I-5.000 J0.000 F1000.000 
G2 X100.000 Y-145.000 Z-5.000 I5.000 J0.000 F1000.000 
G0 X95.000 Y-145.000 Z-5.000 
G0 Z0.000 
G0 Z5.000 
(finish operation: Helix001)
(begin operation: LeadInOutDressup)
(machine units: mm/min)
(MillFace) 
G0 X255.500 Y-38.384 Z5.000 
G0 Z3.000 
G1 Z-2.000 F1000.000 
G3 X254.000 Y-36.884 Z-2.000 I-1.500 J0.000 F1000.000 
G1 X254.000 Y-36.884 Z-2.000 F1000.000 
G1 X16.000 Y-36.884 Z-2.000 F1000.000 
G3 X14.500 Y-38.384 Z-2.000 I-0.000 J-1.500 F1000.000 
G0 X14.500 Y-36.984 
G1 Z-2.000 F1000.000 
G3 X16.000 Y-38.484 Z-2.000 I1.500 J0.000 F1000.000 
G1 X16.000 Y-38.484 Z-2.000 F1000.000 
G1 X254.000 Y-38.484 Z-2.000 F1000.000 
G3 X255.500 Y-36.984 Z-2.000 I-0.000 J1.500 F1000.000 
G0 X255.500 Y-41.584 
G1 Z-2.000 F1000.000 
G3 X254.000 Y-40.084 Z-2.000 I-1.500 J0.000 F1000.000 
G1 X254.000 Y-40.084 Z-2.000 F1000.000 
G1 X16.000 Y-40.084 Z-2.000 F1000.000 
G3 X14.500 Y-41.584 Z-2.000 I-0.000 J-1.500 F1000.000 
G0 X14.500 Y-40.184 
G1 Z-2.000 F1000.000 
G3 X16.000 Y-41.684 Z-2.000 I1.500 J0.000 F1000.000 
G1 X16.000 Y-41.684 Z-2.000 F1000.000 
G1 X254.000 Y-41.684 Z-2.000 F1000.000 
G3 X255.500 Y-40.184 Z-2.000 I-0.000 J1.500 F1000.000 
G0 X255.500 Y-44.784 
G1 Z-2.000 F1000.000 
G3 X254.000 Y-43.284 Z-2.000 I-1.500 J0.000 F1000.000 
G1 X254.000 Y-43.284 Z-2.000 F1000.000 
G1 X16.000 Y-43.284 Z-2.000 F1000.000 
G3 X14.500 Y-44.784 Z-2.000 I-0.000 J-1.500 F1000.000 
G0 X14.500 Y-41.784 
G1 Z-3.000 F1000.000 
G3 X16.000 Y-43.284 Z-3.000 I1.500 J0.000 F1000.000 
G1 X16.000 Y-43.284 Z-3.000 F1000.000 
G1 X254.000 Y-43.284 Z-3.000 F1000.000 
G3 X255.500 Y-41.784 Z-3.000 I-0.000 J1.500 F1000.000 
G0 X255.500 Y-43.184 
G1 Z-3.000 F1000.000 
G3 X254.000 Y-41.684 Z-3.000 I-1.500 J0.000 F1000.000 
G1 X254.000 Y-41.684 Z-3.000 F1000.000 
G1 X16.000 Y-41.684 Z-3.000 F1000.000 
G3 X14.500 Y-43.184 Z-3.000 I-0.000 J-1.500 F1000.000 
G0 X14.500 Y-38.584 
G1 Z-3.000 F1000.000 
G3 X16.000 Y-40.084 Z-3.000 I1.500 J0.000 F1000.000 
G1 X16.000 Y-40.084 Z-3.000 F1000.000 
G1 X254.000 Y-40.084 Z-3.000 F1000.000 
G3 X255.500 Y-38.584 Z-3.000 I-0.000 J1.500 F1000.000 
G0 X255.500 Y-39.984 
G1 Z-3.000 F1000.000 
G3 X254.000 Y-38.484 Z-3.000 I-1.500 J0.000 F1000.000 
G1 X254.000 Y-38.484 Z-3.000 F1000.000 
G1 X16.000 Y-38.484 Z-3.000 F1000.000 
G3 X14.500 Y-39.984 Z-3.000 I-0.000 J-1.500 F1000.000 
G0 X14.500 Y-35.384 
G1 Z-3.000 F1000.000 
G3 X16.000 Y-36.884 Z-3.000 I1.500 J0.000 F1000.000 
G1 X16.000 Y-36.884 Z-3.000 F1000.000 
G1 X254.000 Y-36.884 Z-3.000 F1000.000 
G3 X255.500 Y-35.384 Z-3.000 I-0.000 J1.500 F1000.000 
G0 Z5.000 
(finish operation: LeadInOutDressup)
(begin operation: LeadInOutDressup001)
(machine units: mm/min)
(MillFace001) 
G0 X255.500 Y-68.384 Z5.000 
G0 Z3.000 
G1 Z-2.000 F1000.000 
G3 X254.000 Y-66.884 Z-2.000 I-1.500 J0.000 F1000.000 
G1 X254.000 Y-66.884 Z-2.000 F1000.000 
G1 X16.000 Y-66.884 Z-2.000 F1000.000 
G3 X14.500 Y-68.384 Z-2.000 I-0.000 J-1.500 F1000.000 
G0 X14.500 Y-66.984 
G1 Z-2.000 F1000.000 
G3 X16.000 Y-68.484 Z-2.000 I1.500 J0.000 F1000.000 
G1 X16.000 Y-68.484 Z-2.000 F1000.000 
G1 X254.000 Y-68.484 Z-2.000 F1000.000 
G3 X255.500 Y-66.984 Z-2.000 I-0.000 J1.500 F1000.000 
G0 X255.500 Y-71.584 
G1 Z-2.000 F1000.000 
G3 X254.000 Y-70.084 Z-2.000 I-1.500 J0.000 F1000.000 
G1 X254.000 Y-70.084 Z-2.000 F1000.000 
G1 X16.000 Y-70.084 Z-2.000 F1000.000 
G3 X14.500 Y-71.584 Z-2.000 I-0.000 J-1.500 F1000.000 
G0 X14.500 Y-70.184 
G1 Z-2.000 F1000.000 
G3 X16.000 Y-71.684 Z-2.000 I1.500 J0.000 F1000.000 
G1 X16.000 Y-71.684 Z-2.000 F1000.000 
G1 X254.000 Y-71.684 Z-2.000 F1000.000 
G3 X255.500 Y-70.184 Z-2.000 I-0.000 J1.500 F1000.000 
G0 X255.500 Y-74.784 
G1 Z-2.000 F1000.000 
G3 X254.000 Y-73.284 Z-2.000 I-1.500 J0.000 F1000.000 
G1 X254.000 Y-73.284 Z-2.000 F1000.000 
G1 X16.000 Y-73.284 Z-2.000 F1000.000 
G3 X14.500 Y-74.784 Z-2.000 I-0.000 J-1.500 F1000.000 
G0 X14.500 Y-71.784 
G1 Z-3.000 F1000.000 
G3 X16.000 Y-73.284 Z-3.000 I1.500 J0.000 F1000.000 
G1 X16.000 Y-73.284 Z-3.000 F1000.000 
G1 X254.000 Y-73.284 Z-3.000 F1000.000 
G3 X255.500 Y-71.784 Z-3.000 I-0.000 J1.500 F1000.000 
G0 X255.500 Y-73.184 
G1 Z-3.000 F1000.000 
G3 X254.000 Y-71.684 Z-3.000 I-1.500 J0.000 F1000.000 
G1 X254.000 Y-71.684 Z-3.000 F1000.000 
G1 X16.000 Y-71.684 Z-3.000 F1000.000 
G3 X14.500 Y-73.184 Z-3.000 I-0.000 J-1.500 F1000.000 
G0 X14.500 Y-68.584 
G1 Z-3.000 F1000.000 
G3 X16.000 Y-70.084 Z-3.000 I1.500 J0.000 F1000.000 
G1 X16.000 Y-70.084 Z-3.000 F1000.000 
G1 X254.000 Y-70.084 Z-3.000 F1000.000 
G3 X255.500 Y-68.584 Z-3.000 I-0.000 J1.500 F1000.000 
G0 X255.500 Y-69.984 
G1 Z-3.000 F1000.000 
G3 X254.000 Y-68.484 Z-3.000 I-1.500 J0.000 F1000.000 
G1 X254.000 Y-68.484 Z-3.000 F1000.000 
G1 X16.000 Y-68.484 Z-3.000 F1000.000 
G3 X14.500 Y-69.984 Z-3.000 I-0.000 J-1.500 F1000.000 
G0 X14.500 Y-65.384 
G1 Z-3.000 F1000.000 
G3 X16.000 Y-66.884 Z-3.000 I1.500 J0.000 F1000.000 
G1 X16.000 Y-66.884 Z-3.000 F1000.000 
G1 X254.000 Y-66.884 Z-3.000 F1000.000 
G3 X255.500 Y-65.384 Z-3.000 I-0.000 J1.500 F1000.000 
G0 Z5.000 
(finish operation: LeadInOutDressup001)
(begin operation: LeadInOutDressup002)
(machine units: mm/min)
(MillFace002) 
G0 X255.500 Y-98.216 Z5.000 
G0 Z3.000 
G1 Z-2.000 F1000.000 
G3 X254.000 Y-96.716 Z-2.000 I-1.500 J0.000 F1000.000 
G1 X254.000 Y-96.716 Z-2.000 F1000.000 
G1 X16.000 Y-96.716 Z-2.000 F1000.000 
G3 X14.500 Y-98.216 Z-2.000 I-0.000 J-1.500 F1000.000 
G0 X14.500 Y-96.816 
G1 Z-2.000 F1000.000 
G3 X16.000 Y-98.316 Z-2.000 I1.500 J0.000 F1000.000 
G1 X16.000 Y-98.316 Z-2.000 F1000.000 
G1 X254.000 Y-98.316 Z-2.000 F1000.000 
G3 X255.500 Y-96.816 Z-2.000 I-0.000 J1.500 F1000.000 
G0 X255.500 Y-101.416 
G1 Z-2.000 F1000.000 
G3 X254.000 Y-99.916 Z-2.000 I-1.500 J0.000 F1000.000 
G1 X254.000 Y-99.916 Z-2.000 F1000.000 
G1 X16.000 Y-99.916 Z-2.000 F1000.000 
G3 X14.500 Y-101.416 Z-2.000 I-0.000 J-1.500 F1000.000 
G0 X14.500 Y-100.016 
G1 Z-2.000 F1000.000 
G3 X16.000 Y-101.516 Z-2.000 I1.500 J0.000 F1000.000 
G1 X16.000 Y-101.516 Z-2.000 F1000.000 
G1 X254.000 Y-101.516 Z-2.000 F1000.000 
G3 X255.500 Y-100.016 Z-2.000 I-0.000 J1.500 F1000.000 
G0 X255.500 Y-104.616 
G1 Z-2.000 F1000.000 
G3 X254.000 Y-103.116 Z-2.000 I-1.500 J0.000 F1000.000 
G1 X254.000 Y-103.116 Z-2.000 F1000.000 
G1 X16.000 Y-103.116 Z-2.000 F1000.000 
G3 X14.500 Y-104.616 Z-2.000 I-0.000 J-1.500 F1000.000 
G0 X14.500 Y-101.616 
G1 Z-3.000 F1000.000 
G3 X16.000 Y-103.116 Z-3.000 I1.500 J0.000 F1000.000 
G1 X16.000 Y-103.116 Z-3.000 F1000.000 
G1 X254.000 Y-103.116 Z-3.000 F1000.000 
G3 X255.500 Y-101.616 Z-3.000 I-0.000 J1.500 F1000.000 
G0 X255.500 Y-103.016 
G1 Z-3.000 F1000.000 
G3 X254.000 Y-101.516 Z-3.000 I-1.500 J0.000 F1000.000 
G1 X254.000 Y-101.516 Z-3.000 F1000.000 
G1 X16.000 Y-101.516 Z-3.000 F1000.000 
G3 X14.500 Y-103.016 Z-3.000 I-0.000 J-1.500 F1000.000 
G0 X14.500 Y-98.416 
G1 Z-3.000 F1000.000 
G3 X16.000 Y-99.916 Z-3.000 I1.500 J0.000 F1000.000 
G1 X16.000 Y-99.916 Z-3.000 F1000.000 
G1 X254.000 Y-99.916 Z-3.000 F1000.000 
G3 X255.500 Y-98.416 Z-3.000 I-0.000 J1.500 F1000.000 
G0 X255.500 Y-99.816 
G1 Z-3.000 F1000.000 
G3 X254.000 Y-98.316 Z-3.000 I-1.500 J0.000 F1000.000 
G1 X254.000 Y-98.316 Z-3.000 F1000.000 
G1 X16.000 Y-98.316 Z-3.000 F1000.000 
G3 X14.500 Y-99.816 Z-3.000 I-0.000 J-1.500 F1000.000 
G0 X14.500 Y-95.216 
G1 Z-3.000 F1000.000 
G3 X16.000 Y-96.716 Z-3.000 I1.500 J0.000 F1000.000 
G1 X16.000 Y-96.716 Z-3.000 F1000.000 
G1 X254.000 Y-96.716 Z-3.000 F1000.000 
G3 X255.500 Y-95.216 Z-3.000 I-0.000 J1.500 F1000.000 
G0 Z5.000 
(finish operation: LeadInOutDressup002)
(begin operation: LeadInOutDressup003)
(machine units: mm/min)
(MillFace003) 
G0 X255.500 Y-128.216 Z5.000 
G0 Z3.000 
G1 Z-2.000 F1000.000 
G3 X254.000 Y-126.716 Z-2.000 I-1.500 J0.000 F1000.000 
G1 X254.000 Y-126.716 Z-2.000 F1000.000 
G1 X16.000 Y-126.716 Z-2.000 F1000.000 
G3 X14.500 Y-128.216 Z-2.000 I-0.000 J-1.500 F1000.000 
G0 X14.500 Y-126.816 
G1 Z-2.000 F1000.000 
G3 X16.000 Y-128.316 Z-2.000 I1.500 J0.000 F1000.000 
G1 X16.000 Y-128.316 Z-2.000 F1000.000 
G1 X254.000 Y-128.316 Z-2.000 F1000.000 
G3 X255.500 Y-126.816 Z-2.000 I-0.000 J1.500 F1000.000 
G0 X255.500 Y-131.416 
G1 Z-2.000 F1000.000 
G3 X254.000 Y-129.916 Z-2.000 I-1.500 J0.000 F1000.000 
G1 X254.000 Y-129.916 Z-2.000 F1000.000 
G1 X16.000 Y-129.916 Z-2.000 F1000.000 
G3 X14.500 Y-131.416 Z-2.000 I-0.000 J-1.500 F1000.000 
G0 X14.500 Y-130.016 
G1 Z-2.000 F1000.000 
G3 X16.000 Y-131.516 Z-2.000 I1.500 J0.000 F1000.000 
G1 X16.000 Y-131.516 Z-2.000 F1000.000 
G1 X254.000 Y-131.516 Z-2.000 F1000.000 
G3 X255.500 Y-130.016 Z-2.000 I-0.000 J1.500 F1000.000 
G0 X255.500 Y-134.616 
G1 Z-2.000 F1000.000 
G3 X254.000 Y-133.116 Z-2.000 I-1.500 J0.000 F1000.000 
G1 X254.000 Y-133.116 Z-2.000 F1000.000 
G1 X16.000 Y-133.116 Z-2.000 F1000.000 
G3 X14.500 Y-134.616 Z-2.000 I-0.000 J-1.500 F1000.000 
G0 X14.500 Y-131.616 
G1 Z-3.000 F1000.000 
G3 X16.000 Y-133.116 Z-3.000 I1.500 J0.000 F1000.000 
G1 X16.000 Y-133.116 Z-3.000 F1000.000 
G1 X254.000 Y-133.116 Z-3.000 F1000.000 
G3 X255.500 Y-131.616 Z-3.000 I-0.000 J1.500 F1000.000 
G0 X255.500 Y-133.016 
G1 Z-3.000 F1000.000 
G3 X254.000 Y-131.516 Z-3.000 I-1.500 J0.000 F1000.000 
G1 X254.000 Y-131.516 Z-3.000 F1000.000 
G1 X16.000 Y-131.516 Z-3.000 F1000.000 
G3 X14.500 Y-133.016 Z-3.000 I-0.000 J-1.500 F1000.000 
G0 X14.500 Y-128.416 
G1 Z-3.000 F1000.000 
G3 X16.000 Y-129.916 Z-3.000 I1.500 J0.000 F1000.000 
G1 X16.000 Y-129.916 Z-3.000 F1000.000 
G1 X254.000 Y-129.916 Z-3.000 F1000.000 
G3 X255.500 Y-128.416 Z-3.000 I-0.000 J1.500 F1000.000 
G0 X255.500 Y-129.816 
G1 Z-3.000 F1000.000 
G3 X254.000 Y-128.316 Z-3.000 I-1.500 J0.000 F1000.000 
G1 X254.000 Y-128.316 Z-3.000 F1000.000 
G1 X16.000 Y-128.316 Z-3.000 F1000.000 
G3 X14.500 Y-129.816 Z-3.000 I-0.000 J-1.500 F1000.000 
G0 X14.500 Y-125.216 
G1 Z-3.000 F1000.000 
G3 X16.000 Y-126.716 Z-3.000 I1.500 J0.000 F1000.000 
G1 X16.000 Y-126.716 Z-3.000 F1000.000 
G1 X254.000 Y-126.716 Z-3.000 F1000.000 
G3 X255.500 Y-125.216 Z-3.000 I-0.000 J1.500 F1000.000 
G0 Z5.000 
(finish operation: LeadInOutDressup003)
(begin operation: LeadInOutDressup004)
(machine units: mm/min)
(MillFace004) 
G0 X255.500 Y-158.384 Z5.000 
G0 Z3.000 
G1 Z-2.000 F1000.000 
G3 X254.000 Y-156.884 Z-2.000 I-1.500 J0.000 F1000.000 
G1 X254.000 Y-156.884 Z-2.000 F1000.000 
G1 X16.000 Y-156.884 Z-2.000 F1000.000 
G3 X14.500 Y-158.384 Z-2.000 I-0.000 J-1.500 F1000.000 
G0 X14.500 Y-156.984 
G1 Z-2.000 F1000.000 
G3 X16.000 Y-158.484 Z-2.000 I1.500 J0.000 F1000.000 
G1 X16.000 Y-158.484 Z-2.000 F1000.000 
G1 X254.000 Y-158.484 Z-2.000 F1000.000 
G3 X255.500 Y-156.984 Z-2.000 I-0.000 J1.500 F1000.000 
G0 X255.500 Y-161.584 
G1 Z-2.000 F1000.000 
G3 X254.000 Y-160.084 Z-2.000 I-1.500 J0.000 F1000.000 
G1 X254.000 Y-160.084 Z-2.000 F1000.000 
G1 X16.000 Y-160.084 Z-2.000 F1000.000 
G3 X14.500 Y-161.584 Z-2.000 I-0.000 J-1.500 F1000.000 
G0 X14.500 Y-160.184 
G1 Z-2.000 F1000.000 
G3 X16.000 Y-161.684 Z-2.000 I1.500 J0.000 F1000.000 
G1 X16.000 Y-161.684 Z-2.000 F1000.000 
G1 X254.000 Y-161.684 Z-2.000 F1000.000 
G3 X255.500 Y-160.184 Z-2.000 I-0.000 J1.500 F1000.000 
G0 X255.500 Y-164.784 
G1 Z-2.000 F1000.000 
G3 X254.000 Y-163.284 Z-2.000 I-1.500 J0.000 F1000.000 
G1 X254.000 Y-163.284 Z-2.000 F1000.000 
G1 X16.000 Y-163.284 Z-2.000 F1000.000 
G3 X14.500 Y-164.784 Z-2.000 I-0.000 J-1.500 F1000.000 
G0 X14.500 Y-161.784 
G1 Z-3.000 F1000.000 
G3 X16.000 Y-163.284 Z-3.000 I1.500 J0.000 F1000.000 
G1 X16.000 Y-163.284 Z-3.000 F1000.000 
G1 X254.000 Y-163.284 Z-3.000 F1000.000 
G3 X255.500 Y-161.784 Z-3.000 I-0.000 J1.500 F1000.000 
G0 X255.500 Y-163.184 
G1 Z-3.000 F1000.000 
G3 X254.000 Y-161.684 Z-3.000 I-1.500 J0.000 F1000.000 
G1 X254.000 Y-161.684 Z-3.000 F1000.000 
G1 X16.000 Y-161.684 Z-3.000 F1000.000 
G3 X14.500 Y-163.184 Z-3.000 I-0.000 J-1.500 F1000.000 
G0 X14.500 Y-158.584 
G1 Z-3.000 F1000.000 
G3 X16.000 Y-160.084 Z-3.000 I1.500 J0.000 F1000.000 
G1 X16.000 Y-160.084 Z-3.000 F1000.000 
G1 X254.000 Y-160.084 Z-3.000 F1000.000 
G3 X255.500 Y-158.584 Z-3.000 I-0.000 J1.500 F1000.000 
G0 X255.500 Y-159.984 
G1 Z-3.000 F1000.000 
G3 X254.000 Y-158.484 Z-3.000 I-1.500 J0.000 F1000.000 
G1 X254.000 Y-158.484 Z-3.000 F1000.000 
G1 X16.000 Y-158.484 Z-3.000 F1000.000 
G3 X14.500 Y-159.984 Z-3.000 I-0.000 J-1.500 F1000.000 
G0 X14.500 Y-155.384 
G1 Z-3.000 F1000.000 
G3 X16.000 Y-156.884 Z-3.000 I1.500 J0.000 F1000.000 
G1 X16.000 Y-156.884 Z-3.000 F1000.000 
G1 X254.000 Y-156.884 Z-3.000 F1000.000 
G3 X255.500 Y-155.384 Z-3.000 I-0.000 J1.500 F1000.000 
G0 Z5.000 
(finish operation: LeadInOutDressup004)
(begin operation: LeadInOutDressup005)
(machine units: mm/min)
(MillFace005) 
G0 X255.500 Y-188.384 Z5.000 
G0 Z3.000 
G1 Z-2.000 F1000.000 
G3 X254.000 Y-186.884 Z-2.000 I-1.500 J0.000 F1000.000 
G1 X254.000 Y-186.884 Z-2.000 F1000.000 
G1 X16.000 Y-186.884 Z-2.000 F1000.000 
G3 X14.500 Y-188.384 Z-2.000 I-0.000 J-1.500 F1000.000 
G0 X14.500 Y-186.984 
G1 Z-2.000 F1000.000 
G3 X16.000 Y-188.484 Z-2.000 I1.500 J0.000 F1000.000 
G1 X16.000 Y-188.484 Z-2.000 F1000.000 
G1 X254.000 Y-188.484 Z-2.000 F1000.000 
G3 X255.500 Y-186.984 Z-2.000 I-0.000 J1.500 F1000.000 
G0 X255.500 Y-191.584 
G1 Z-2.000 F1000.000 
G3 X254.000 Y-190.084 Z-2.000 I-1.500 J0.000 F1000.000 
G1 X254.000 Y-190.084 Z-2.000 F1000.000 
G1 X16.000 Y-190.084 Z-2.000 F1000.000 
G3 X14.500 Y-191.584 Z-2.000 I-0.000 J-1.500 F1000.000 
G0 X14.500 Y-190.184 
G1 Z-2.000 F1000.000 
G3 X16.000 Y-191.684 Z-2.000 I1.500 J0.000 F1000.000 
G1 X16.000 Y-191.684 Z-2.000 F1000.000 
G1 X254.000 Y-191.684 Z-2.000 F1000.000 
G3 X255.500 Y-190.184 Z-2.000 I-0.000 J1.500 F1000.000 
G0 X255.500 Y-194.784 
G1 Z-2.000 F1000.000 
G3 X254.000 Y-193.284 Z-2.000 I-1.500 J0.000 F1000.000 
G1 X254.000 Y-193.284 Z-2.000 F1000.000 
G1 X16.000 Y-193.284 Z-2.000 F1000.000 
G3 X14.500 Y-194.784 Z-2.000 I-0.000 J-1.500 F1000.000 
G0 X14.500 Y-191.784 
G1 Z-3.000 F1000.000 
G3 X16.000 Y-193.284 Z-3.000 I1.500 J0.000 F1000.000 
G1 X16.000 Y-193.284 Z-3.000 F1000.000 
G1 X254.000 Y-193.284 Z-3.000 F1000.000 
G3 X255.500 Y-191.784 Z-3.000 I-0.000 J1.500 F1000.000 
G0 X255.500 Y-193.184 
G1 Z-3.000 F1000.000 
G3 X254.000 Y-191.684 Z-3.000 I-1.500 J0.000 F1000.000 
G1 X254.000 Y-191.684 Z-3.000 F1000.000 
G1 X16.000 Y-191.684 Z-3.000 F1000.000 
G3 X14.500 Y-193.184 Z-3.000 I-0.000 J-1.500 F1000.000 
G0 X14.500 Y-188.584 
G1 Z-3.000 F1000.000 
G3 X16.000 Y-190.084 Z-3.000 I1.500 J0.000 F1000.000 
G1 X16.000 Y-190.084 Z-3.000 F1000.000 
G1 X254.000 Y-190.084 Z-3.000 F1000.000 
G3 X255.500 Y-188.584 Z-3.000 I-0.000 J1.500 F1000.000 
G0 X255.500 Y-189.984 
G1 Z-3.000 F1000.000 
G3 X254.000 Y-188.484 Z-3.000 I-1.500 J0.000 F1000.000 
G1 X254.000 Y-188.484 Z-3.000 F1000.000 
G1 X16.000 Y-188.484 Z-3.000 F1000.000 
G3 X14.500 Y-189.984 Z-3.000 I-0.000 J-1.500 F1000.000 
G0 X14.500 Y-185.384 
G1 Z-3.000 F1000.000 
G3 X16.000 Y-186.884 Z-3.000 I1.500 J0.000 F1000.000 
G1 X16.000 Y-186.884 Z-3.000 F1000.000 
G1 X254.000 Y-186.884 Z-3.000 F1000.000 
G3 X255.500 Y-185.384 Z-3.000 I-0.000 J1.500 F1000.000 
G0 Z5.000 
(finish operation: LeadInOutDressup005)
(begin operation: Profile)
(machine units: mm/min)
(Profile) 
(Compensated Tool Path. Diameter: 2.0) 
G0 Z5.000 
G0 X254.050 Y-36.450 
G0 Z3.000 
G1 X254.050 Y-36.450 Z-3.000 F1000.000 
G1 X254.050 Y-43.550 Z-3.000 F1000.000 
G1 X15.950 Y-43.550 Z-3.000 F1000.000 
G1 X15.950 Y-36.450 Z-3.000 F1000.000 
G1 X254.050 Y-36.450 Z-3.000 F1000.000 
G0 Z5.000 
G0 Y-66.450 Z5.000 
G0 Y-66.450 Z3.000 
G1 X254.050 Y-66.450 Z-3.000 F1000.000 
G1 X254.050 Y-73.550 Z-3.000 F1000.000 
G1 X15.950 Y-73.550 Z-3.000 F1000.000 
G1 X15.950 Y-66.450 Z-3.000 F1000.000 
G1 X254.050 Y-66.450 Z-3.000 F1000.000 
G0 Z5.000 
G0 Y-96.450 Z5.000 
G0 Y-96.450 Z3.000 
G1 X254.050 Y-96.450 Z-3.000 F1000.000 
G1 X254.050 Y-103.550 Z-3.000 F1000.000 
G1 X15.950 Y-103.550 Z-3.000 F1000.000 
G1 X15.950 Y-96.450 Z-3.000 F1000.000 
G1 X254.050 Y-96.450 Z-3.000 F1000.000 
G0 Z5.000 
G0 Y-126.450 Z5.000 
G0 Y-126.450 Z3.000 
G1 X254.050 Y-126.450 Z-3.000 F1000.000 
G1 X254.050 Y-133.550 Z-3.000 F1000.000 
G1 X15.950 Y-133.550 Z-3.000 F1000.000 
G1 X15.950 Y-126.450 Z-3.000 F1000.000 
G1 X254.050 Y-126.450 Z-3.000 F1000.000 
G0 Z5.000 
G0 Y-156.450 Z5.000 
G0 Y-156.450 Z3.000 
G1 X254.050 Y-156.450 Z-3.000 F1000.000 
G1 X254.050 Y-163.550 Z-3.000 F1000.000 
G1 X15.950 Y-163.550 Z-3.000 F1000.000 
G1 X15.950 Y-156.450 Z-3.000 F1000.000 
G1 X254.050 Y-156.450 Z-3.000 F1000.000 
G0 Z5.000 
G0 Y-186.450 Z5.000 
G0 Y-186.450 Z3.000 
G1 X254.050 Y-186.450 Z-3.000 F1000.000 
G1 X254.050 Y-193.550 Z-3.000 F1000.000 
G1 X15.950 Y-193.550 Z-3.000 F1000.000 
G1 X15.950 Y-186.450 Z-3.000 F1000.000 
G1 X254.050 Y-186.450 Z-3.000 F1000.000 
G0 Z5.000 
G0 Z5.000 
(finish operation: Profile)
(begin operation: DressupTag)
(machine units: mm/min)
G0 Z5.000 
G0 X255.707 Y-5.793 Z5.000 
G0 X255.707 Y-5.793 Z3.000 
G1 X255.707 Y-5.793 Z-2.000 F1000.000 
G2 X256.000 Y-6.500 Z-2.000 I-0.707 J-0.707 F1000.000 
G1 X256.000 Y-203.500 Z-2.000 F1000.000 
G2 X255.000 Y-204.500 Z-2.000 I-1.000 J-0.000 F1000.000 
G1 X15.000 Y-204.500 Z-2.000 F1000.000 
G2 X14.000 Y-203.500 Z-2.000 I-0.000 J1.000 F1000.000 
G1 X14.000 Y-6.500 Z-2.000 F1000.000 
G2 X15.000 Y-5.500 Z-2.000 I1.000 J0.000 F1000.000 
G1 X255.000 Y-5.500 Z-2.000 F1000.000 
G2 X255.707 Y-5.793 Z-2.000 I-0.000 J-1.000 F1000.000 
G1 X255.707 Y-5.793 Z-4.000 F1000.000 
G2 X256.000 Y-6.500 Z-4.000 I-0.707 J-0.707 F1000.000 
G1 X256.000 Y-203.500 Z-4.000 F1000.000 
G2 X255.000 Y-204.500 Z-4.000 I-1.000 J-0.000 F1000.000 
G1 X15.000 Y-204.500 Z-4.000 F1000.000 
G2 X14.000 Y-203.500 Z-4.000 I-0.000 J1.000 F1000.000 
G1 X14.000 Y-6.500 Z-4.000 F1000.000 
G2 X15.000 Y-5.500 Z-4.000 I1.000 J0.000 F1000.000 
G1 X255.000 Y-5.500 Z-4.000 F1000.000 
G2 X255.707 Y-5.793 Z-4.000 I-0.000 J-1.000 F1000.000 
G1 X255.707 Y-5.793 Z-6.000 F1000.000 
G2 X256.000 Y-6.500 Z-6.000 I-0.707 J-0.707 F1000.000 
G1 X256.000 Y-203.500 Z-6.000 F1000.000 
G2 X255.000 Y-204.500 Z-6.000 I-1.000 J-0.000 F1000.000 
G1 X196.980 Y-204.500 Z-6.000 F1000.000 
G1 X195.000 Y-204.500 Z-4.000 F1000.000 
G1 X193.020 Y-204.500 Z-6.000 F1000.000 
G1 X76.980 Y-204.500 Z-6.000 F1000.000 
G1 X75.000 Y-204.500 Z-4.000 F1000.000 
G1 X73.020 Y-204.500 Z-6.000 F1000.000 
G1 X15.000 Y-204.500 Z-6.000 F1000.000 
G2 X14.000 Y-203.500 Z-6.000 I-0.000 J1.000 F1000.000 
G1 X14.000 Y-6.500 Z-6.000 F1000.000 
G2 X15.000 Y-5.500 Z-6.000 I1.000 J0.000 F1000.000 
G1 X73.020 Y-5.500 Z-6.000 F1000.000 
G1 X75.000 Y-5.500 Z-4.000 F1000.000 
G1 X76.980 Y-5.500 Z-6.000 F1000.000 
G1 X193.020 Y-5.500 Z-6.000 F1000.000 
G1 X195.000 Y-5.500 Z-4.000 F1000.000 
G1 X196.980 Y-5.500 Z-6.000 F1000.000 
G1 X255.000 Y-5.500 Z-6.000 F1000.000 
G2 X255.707 Y-5.793 Z-6.000 I-0.000 J-1.000 F1000.000 
G1 X255.707 Y-5.793 Z-8.000 F1000.000 
G2 X256.000 Y-6.500 Z-8.000 I-0.707 J-0.707 F1000.000 
G1 X256.000 Y-203.500 Z-8.000 F1000.000 
G2 X255.000 Y-204.500 Z-8.000 I-1.000 J-0.000 F1000.000 
G1 X198.960 Y-204.500 Z-8.000 F1000.000 
G1 X195.000 Y-204.500 Z-4.000 F1000.000 
G1 X191.040 Y-204.500 Z-8.000 F1000.000 
G1 X78.960 Y-204.500 Z-8.000 F1000.000 
G1 X75.000 Y-204.500 Z-4.000 F1000.000 
G1 X71.040 Y-204.500 Z-8.000 F1000.000 
G1 X15.000 Y-204.500 Z-8.000 F1000.000 
G2 X14.000 Y-203.500 Z-8.000 I-0.000 J1.000 F1000.000 
G1 X14.000 Y-6.500 Z-8.000 F1000.000 
G2 X15.000 Y-5.500 Z-8.000 I1.000 J0.000 F1000.000 
G1 X71.040 Y-5.500 Z-8.000 F1000.000 
G1 X75.000 Y-5.500 Z-4.000 F1000.000 
G1 X78.960 Y-5.500 Z-8.000 F1000.000 
G1 X191.040 Y-5.500 Z-8.000 F1000.000 
G1 X195.000 Y-5.500 Z-4.000 F1000.000 
G1 X198.960 Y-5.500 Z-8.000 F1000.000 
G1 X255.000 Y-5.500 Z-8.000 F1000.000 
G2 X255.707 Y-5.793 Z-8.000 I-0.000 J-1.000 F1000.000 
G1 X255.707 Y-5.793 Z-9.000 F1000.000 
G2 X256.000 Y-6.500 Z-9.000 I-0.707 J-0.707 F1000.000 
G1 X256.000 Y-203.500 Z-9.000 F1000.000 
G2 X255.000 Y-204.500 Z-9.000 I-1.000 J-0.000 F1000.000 
G1 X199.950 Y-204.500 Z-9.000 F1000.000 
G1 X195.000 Y-204.500 Z-4.000 F1000.000 
G1 X190.050 Y-204.500 Z-9.000 F1000.000 
G1 X79.950 Y-204.500 Z-9.000 F1000.000 
G1 X75.000 Y-204.500 Z-4.000 F1000.000 
G1 X70.050 Y-204.500 Z-9.000 F1000.000 
G1 X15.000 Y-204.500 Z-9.000 F1000.000 
G2 X14.000 Y-203.500 Z-9.000 I-0.000 J1.000 F1000.000 
G1 X14.000 Y-6.500 Z-9.000 F1000.000 
G2 X15.000 Y-5.500 Z-9.000 I1.000 J0.000 F1000.000 
G1 X70.050 Y-5.500 Z-9.000 F1000.000 
G1 X75.000 Y-5.500 Z-4.000 F1000.000 
G1 X79.950 Y-5.500 Z-9.000 F1000.000 
G1 X190.050 Y-5.500 Z-9.000 F1000.000 
G1 X195.000 Y-5.500 Z-4.000 F1000.000 
G1 X199.950 Y-5.500 Z-9.000 F1000.000 
G1 X255.000 Y-5.500 Z-9.000 F1000.000 
G2 X255.707 Y-5.793 Z-9.000 I-0.000 J-1.000 F1000.000 
G0 X255.707 Y-5.793 Z5.000 
(finish operation: DressupTag)
(begin postamble)
M05
G17 G54 G90 G80 G40
M2
